!!!!SEGMENT: pl-sa--l-1643--030_anonim--domine-dominus-noster.krn
!!!cenid: 16xx:1385
!!!COM: Anonim
!!!COM-rismID: pe30004985
!!!CDT:
!!!CNT:
!!!OTL: Domine dominus noster
!!!PDT:
!!!AGN: Sacred
!!!SMS-siglum: PL-SA
!!!SMS-shelfmark: L 1643
!!!SMS-shelfwork: 030 W
!!!SMS-variant:
!!!SMS-altvar:
!!!NIFC-rismSourceID: 1001063821
!!!NIFC-rismChildID: 1001063821
!!!NIFC-islandoraID:
!!!URL-pdf-islandora:
!!!URL-scan:
!!!ONB-nifc: UWAGA: 8 ksiąg. Primi chori: 1mus Cantus (52-53), C 2dus (52-53), C 3tius (51-52), Bassus (48-49); Secondi chori: Primus Cantus (50-51), C 2dus (52-53), Altus (52-53), Bassus (52-53). UWAGA: metrum 2/2 i 3/2. Nie dodawać pustych linii, chyba że w rękopisie pojawiają się dodatkowe oznaczenia dotyczące pełnej obsady (a 4, a 8 itp.)
!!!AIN: 1 alto 2 bass 5 soprn
!!!key: d:dor
!!!finalis: d
**kern	**text	**kern	**text	**kern	**text	**kern	**text	**kern	**text	**kern	**text	**kern	**text	**kern	**text
*group2	*	*group2	*	*group2	*	*group2	*	*group1	*	*group1	*	*group1	*	*group1	*
*part8	*part8	*part7	*part7	*part6	*part6	*part5	*part5	*part4	*part4	*part3	*part3	*part2	*part2	*part1	*part1
*staff8	*staff8	*staff7	*staff7	*staff6	*staff6	*staff5	*staff5	*staff4	*staff4	*staff3	*staff3	*staff2	*staff2	*staff1	*staff1
*I"Baſsus 2di Chori.	*	*I"Altus secundi Chori.	*	*I"Cantus 2dus Secundi Chori.	*	*I"Primus Cantus 2di Chori	*	*I"Bassus Primi Chori.	*	*I"Cantus 3tius Primi Chori	*	*I"Cantus 2dus Primi Chori.	*	*I"Im(us) Cantus Primi Chori	*
*I'[Coro 2 B]	*	*I'[Coro 2 A]	*	*I'[Coro 2 S 2]	*	*I'[Coro 2 S 1]	*	*I'[Coro 1 B]	*	*I'[Coro 1 S 3]	*	*I'[Coro 1 S 2]	*	*I'[Coro 1 S 1]	*
*Ibass	*	*Ialto	*	*Isoprn	*	*Isoprn	*	*Ibass	*	*Isoprn	*	*Isoprn	*	*Isoprn	*
*ICvox	*	*ICvox	*	*ICvox	*	*ICvox	*	*ICvox	*	*ICvox	*	*ICvox	*	*ICvox	*
*clefC3	*	*clefC2	*	*clefC1	*	*clefG2	*	*clefC3	*	*clefC2	*	*clefC1	*	*clefG2	*
*k[]	*	*k[]	*	*k[]	*	*k[]	*	*k[]	*	*k[]	*	*k[]	*	*k[]	*
*d:dor	*	*d:dor	*	*d:dor	*	*d:dor	*	*d:dor	*	*d:dor	*	*d:dor	*	*d:dor	*
*M2/2	*	*M2/2	*	*M2/2	*	*M2/2	*	*M2/2	*	*M2/2	*	*M2/2	*	*M2/2	*
*met(C|)	*	*met(C|)	*	*met(C|)	*	*met(C|)	*	*met(C|)	*	*met(C|)	*	*met(C|)	*	*met(C|)	*
=1-	=1-	=1-	=1-	=1-	=1-	=1-	=1-	=1-	=1-	=1-	=1-	=1-	=1-	=1-	=1-
00r	.	00r	.	00r	.	00r	.	00r	.	00r	.	0r	.	2.a/	Do-
.	.	.	.	.	.	.	.	.	.	.	.	.	.	4a/	-mi-
=2-	=2-	=2-	=2-	=2-	=2-	=2-	=2-	=2-	=2-	=2-	=2-	=2-	=2-	=2-	=2-
.	.	.	.	.	.	.	.	.	.	.	.	.	.	1a	-ne
=3-	=3-	=3-	=3-	=3-	=3-	=3-	=3-	=3-	=3-	=3-	=3-	=3-	=3-	=3-	=3-
.	.	.	.	.	.	.	.	.	.	.	.	2.d/	Do-	2.dd\	Do-
.	.	.	.	.	.	.	.	.	.	.	.	4d/	-mi-	4ee\	.
=4-	=4-	=4-	=4-	=4-	=4-	=4-	=4-	=4-	=4-	=4-	=4-	=4-	=4-	=4-	=4-
.	.	.	.	.	.	.	.	.	.	.	.	1d,>	-ne	2ff\	.
.	.	.	.	.	.	.	.	.	.	.	.	.	.	4ee\	.
.	.	.	.	.	.	.	.	.	.	.	.	.	.	4dd\	.
=5-	=5-	=5-	=5-	=5-	=5-	=5-	=5-	=5-	=5-	=5-	=5-	=5-	=5-	=5-	=5-
00r	.	00r	.	00r	.	00r	.	00r	.	0r	.	2.a\	Do-	2.ff\	.
.	.	.	.	.	.	.	.	.	.	.	.	4b\	.	4ff\	-mi-
=6-	=6-	=6-	=6-	=6-	=6-	=6-	=6-	=6-	=6-	=6-	=6-	=6-	=6-	=6-	=6-
.	.	.	.	.	.	.	.	.	.	.	.	2cc\	.	2ee,>\	-nus
.	.	.	.	.	.	.	.	.	.	.	.	4b\	.	2ff\	no-
.	.	.	.	.	.	.	.	.	.	.	.	4a\	.	.	.
=7-	=7-	=7-	=7-	=7-	=7-	=7-	=7-	=7-	=7-	=7-	=7-	=7-	=7-	=7-	=7-
.	.	.	.	.	.	.	.	.	.	1r	.	2b-X\	.	2dd\	.
.	.	.	.	.	.	.	.	.	.	.	.	2g/	-mi-	2ee\	.
=8-	=8-	=8-	=8-	=8-	=8-	=8-	=8-	=8-	=8-	=8-	=8-	=8-	=8-	=8-	=8-
.	.	.	.	.	.	.	.	.	.	2.a\	Do-	4a\	-nus	1cc#X	.
.	.	.	.	.	.	.	.	.	.	.	.	4g/	.	.	.
.	.	.	.	.	.	.	.	.	.	.	.	4f/	.	.	.
.	.	.	.	.	.	.	.	.	.	4a\	-mi-	4e,>/	.	.	.
=9-	=9-	=9-	=9-	=9-	=9-	=9-	=9-	=9-	=9-	=9-	=9-	=9-	=9-	=9-	=9-
00r	.	00r	.	00r	.	00r	.	0r	.	1a,>	-ne	2.f/	no-	1dd,>	-ſter
.	.	.	.	.	.	.	.	.	.	.	.	4e/	.	.	.
=10-	=10-	=10-	=10-	=10-	=10-	=10-	=10-	=10-	=10-	=10-	=10-	=10-	=10-	=10-	=10-
.	.	.	.	.	.	.	.	.	.	2.dd\	Do-	4d/	.	2.ff\	Do-
.	.	.	.	.	.	.	.	.	.	.	.	4e/	.	.	.
.	.	.	.	.	.	.	.	.	.	.	.	4f/	.	.	.
.	.	.	.	.	.	.	.	.	.	8cc\L	.	4g/	.	4ff\	-mi-
.	.	.	.	.	.	.	.	.	.	8b\J	.	.	.	.	.
*	*	*	*	*	*	*	*	*	*	*	*	*	*	*custos:ee	*
!	!	!	!	!	!	!	!	!	!	!	!	!	!	!LO:LB:g=original	!
=11-	=11-	=11-	=11-	=11-	=11-	=11-	=11-	=11-	=11-	=11-	=11-	=11-	=11-	=11-	=11-
.	.	.	.	.	.	.	.	2.A/	Do-	2.a\	.	2a\	.	2ee\	-nus
.	.	.	.	.	.	.	.	.	.	.	.	1dd\	.	2ff\	no-
.	.	.	.	.	.	.	.	4A/	-mi-	4a\	-mi-	.	.	.	.
=12-	=12-	=12-	=12-	=12-	=12-	=12-	=12-	=12-	=12-	=12-	=12-	=12-	=12-	=12-	=12-
.	.	.	.	.	.	.	.	1A,>	-ne	2a\,>	-nus	.	.	1ee	.
.	.	.	.	.	.	.	.	.	.	4a\	no-	2cc#X\	.	.	.
.	.	.	.	.	.	.	.	.	.	4g\	.	.	.	.	.
*	*	*	*	*	*	*	*	*	*	*	*	*custos:dd	*	*	*
!	!	!	!	!	!	!	!	!	!	!	!	!LO:LB:g=original	!	!	!
=13-	=13-	=13-	=13-	=13-	=13-	=13-	=13-	=13-	=13-	=13-	=13-	=13-	=13-	=13-	=13-
00r	.	00r	.	00r	.	00r	.	2.d\	Do-	4f\	.	1dd,>	-ster	1dd,>	-ſter
.	.	.	.	.	.	.	.	.	.	4e/	.	.	.	.	.
.	.	.	.	.	.	.	.	.	.	4f\	.	.	.	.	.
.	.	.	.	.	.	.	.	4e\	-mi-	4g\	.	.	.	.	.
=14-	=14-	=14-	=14-	=14-	=14-	=14-	=14-	=14-	=14-	=14-	=14-	=14-	=14-	=14-	=14-
.	.	.	.	.	.	.	.	2f,>\	-nus	2.a\	.	2.a\	D(o-	4ccny\	no-
.	.	.	.	.	.	.	.	.	.	.	.	.	.	4b/	.
.	.	.	.	.	.	.	.	4e\	no-	.	.	.	.	4cc\	.
.	.	.	.	.	.	.	.	4d\	.	4g\	.	4a\	-mi)-	4dd\	.
=15-	=15-	=15-	=15-	=15-	=15-	=15-	=15-	=15-	=15-	=15-	=15-	=15-	=15-	=15-	=15-
.	.	.	.	.	.	.	.	0A	.	2f\	.	1a,>	-n(us)	4ee\	.
.	.	.	.	.	.	.	.	.	.	.	.	.	.	4dd\	.
.	.	.	.	.	.	.	.	.	.	4e/	.	.	.	1dd\	.
.	.	.	.	.	.	.	.	.	.	4d/	.	.	.	.	.
=16-	=16-	=16-	=16-	=16-	=16-	=16-	=16-	=16-	=16-	=16-	=16-	=16-	=16-	=16-	=16-
.	.	.	.	.	.	.	.	.	.	1e	.	1a	no-	.	.
.	.	.	.	.	.	.	.	.	.	.	.	.	.	2cc#X\	.
=17-	=17-	=17-	=17-	=17-	=17-	=17-	=17-	=17-	=17-	=17-	=17-	=17-	=17-	=17-	=17-
2.d\	Do-	2.f\	Do-	2.a\	Do-	2.dd\	Do-	1d	-ster	1f	-ster	1a	-ſter	1dd,>	-ſter
4d\	-mi-	4f\	-mi-	4a\	-mi-	4dd\	-mi-	.	.	.	.	.	.	.	.
*	*	*	*	*	*	*	*	*	*	*custos:f	*	*	*	*	*
!	!	!	!	!	!	!	!	!	!	!LO:LB:g=original	!	!	!	!	!
=18-	=18-	=18-	=18-	=18-	=18-	=18-	=18-	=18-	=18-	=18-	=18-	=18-	=18-	=18-	=18-
2d\	-ne	2f\	-ne	2a\	-ne	2dd\	-ne	2r	.	2r	.	2r	.	2r	.
2.B-X/	Do-	2.d/	Do-	2.b-X\	Do-	2.dd\	Do-	2.B-X/	Do-	2.f\	Do-	4.b-X\	Do-	2.ff\	Do-
.	.	.	.	.	.	.	.	.	.	.	.	8b-\	-mi-	.	.
=19-	=19-	=19-	=19-	=19-	=19-	=19-	=19-	=19-	=19-	=19-	=19-	=19-	=19-	=19-	=19-
.	.	.	.	.	.	.	.	.	.	.	.	2b-\	-ne	.	.
4B-/	-mi-	4d/	-mi-	4b-\	-mi-	4dd\	-mi-	4B-/	-mi-	4f\	-mi-	.	.	4ff\	-mi-
2F/	-nus	2f\,>	-nus	2cc\	-nus	2cc\	-nus	2f\	-ne	2a\	-ne	4.a\	Do-	2ff\	-ne
.	.	.	.	.	.	.	.	.	.	.	.	8a\	-mi-	.	.
=20-	=20-	=20-	=20-	=20-	=20-	=20-	=20-	=20-	=20-	=20-	=20-	=20-	=20-	=20-	=20-
0c	no-	4.g\	Do-	4cc\	no-	0cc	no-	2.c/	Do-	4.g\	Do-	1ccny,>	-nus	4.ee\	Do-
.	.	.	.	4b-X\	.	.	.	.	.	.	.	.	.	.	.
.	.	8g\	-mi-	.	.	.	.	.	.	8g\	-mi-	.	.	8ee\	-mi-
.	.	2f\	-nus	4a\	.	.	.	.	.	2a\	-nus	.	.	2ff\	-nus
.	.	.	.	4b-X\	.	.	.	4c/	-mi-	.	.	.	.	.	.
=21-	=21-	=21-	=21-	=21-	=21-	=21-	=21-	=21-	=21-	=21-	=21-	=21-	=21-	=21-	=21-
.	.	2g\	.	1g	.	.	.	2c,/	-n(us)	1g	no	1cc	no	(>2ff\	no-
.	.	1c/	no-	.	.	.	.	2c/	no-	.	.	.	.	2ee\)	.
*	*	*	*	*	*	*	*	*custos:f	*	*	*	*	*	*	*
!	!	!	!	!	!	!	!	!LO:LB:g=original	!	!	!	!	!	!	!
=22-	=22-	=22-	=22-	=22-	=22-	=22-	=22-	=22-	=22-	=22-	=22-	=22-	=22-	=22-	=22-
1F	-ster	.	.	1f	-ſter	1cc	-ster	1f,>	-ſter	1a,>	ſter	1a,>	ſter	1ff,>	-ſter
.	.	2f\	-ſter	.	.	.	.	.	.	.	.	.	.	.	.
=23-	=23-	=23-	=23-	=23-	=23-	=23-	=23-	=23-	=23-	=23-	=23-	=23-	=23-	=23-	=23-
00r	.	00r	.	00r	.	00r	.	2f\	quam	2a\	q(ua)m	1a	quam	1ccny	qua(m)
.	.	.	.	.	.	.	.	4f\	ad-	4a\	ad-	.	.	.	.
.	.	.	.	.	.	.	.	4e\	-mi-	4g\	-mi-	.	.	.	.
=24-	=24-	=24-	=24-	=24-	=24-	=24-	=24-	=24-	=24-	=24-	=24-	=24-	=24-	=24-	=24-
.	.	.	.	.	.	.	.	2.d\	-re-	2.f\	-ra-	2.dd\	ad-	2.ff\	ad
.	.	.	.	.	.	.	.	4d\	-bi-	4f\	-bi-	4cc\	-mi-	4ee\	mi-
=25-	=25-	=25-	=25-	=25-	=25-	=25-	=25-	=25-	=25-	=25-	=25-	=25-	=25-	=25-	=25-
.	.	.	.	.	.	.	.	2.g\	-le	1.g	-le	2bny\	-ra-	2dd\	-ra-
.	.	.	.	.	.	.	.	.	.	.	.	2b\	-bi-	2dd\	-bi-
.	.	.	.	.	.	.	.	4f\	eſt	.	.	.	.	.	.
*	*	*	*	*	*	*	*	*	*	*	*	*	*	*custos:ee	*
!	!	!	!	!	!	!	!	!	!	!	!	!	!	!LO:LB:g=original	!
=26-	=26-	=26-	=26-	=26-	=26-	=26-	=26-	=26-	=26-	=26-	=26-	=26-	=26-	=26-	=26-
.	.	.	.	.	.	.	.	2e\	no-	.	.	2cc\	-le	2ee\	-le
.	.	.	.	.	.	.	.	2c/,>	-men	2g\,>	eſt	2cc\	eſt	2ee\	eſt
=27-	=27-	=27-	=27-	=27-	=27-	=27-	=27-	=27-	=27-	=27-	=27-	=27-	=27-	=27-	=27-
0r	.	0r	.	0r	.	0r	.	2.f\	tu-	2.a\	no-	2.a\	no-	1cc	no-
.	.	.	.	.	.	.	.	4e\	.	4g\	.	8b\L	.	.	.
.	.	.	.	.	.	.	.	.	.	.	.	8cc\J	.	.	.
=28-	=28-	=28-	=28-	=28-	=28-	=28-	=28-	=28-	=28-	=28-	=28-	=28-	=28-	=28-	=28-
.	.	.	.	.	.	.	.	4d\	.	2f\	.	2dd\	.	1ff	-men
.	.	.	.	.	.	.	.	4e\	.	.	.	.	.	.	.
.	.	.	.	.	.	.	.	4f\	.	2a,>\	-men	2cc,>\	-men	.	.
.	.	.	.	.	.	.	.	4d\	.	.	.	.	.	.	.
=29-	=29-	=29-	=29-	=29-	=29-	=29-	=29-	=29-	=29-	=29-	=29-	=29-	=29-	=29-	=29-
1r	.	1r	.	1r	.	1r	.	1e	.	(>2a\	tu-	1b	tu-	1ee	tu-
.	.	.	.	.	.	.	.	.	.	2g#X\)	.	.	.	.	.
=30-	=30-	=30-	=30-	=30-	=30-	=30-	=30-	=30-	=30-	=30-	=30-	=30-	=30-	=30-	=30-
2A/	quam	2e/	quam	2a\	quam	2cc#X\	quam	2A/	-um	1a,>	-um	1cc#X	-um	1ee,>	-um
4A/	ad-	4e/	ad-	4a\	ad-	4cc#\	ad-	2r	.	.	.	.	.	.	.
4A/	-mi-	4e/	-mi-	4a\	-mi-	4cc#\	-mi-	.	.	.	.	.	.	.	.
*	*	*	*	*	*	*	*	*	*	*	*	*custos:a	*	*	*
!	!	!	!	!	!	!	!	!	!	!	!	!LO:LB:g=original	!	!	!
=31-	=31-	=31-	=31-	=31-	=31-	=31-	=31-	=31-	=31-	=31-	=31-	=31-	=31-	=31-	=31-
*	*	*	*	*	*	*	*	*	*ij	*	*	*	*	*	*
2.d\	-ra-	2.f#X\	-ra-	2.a\	-ra-	2.dd\	-ra-	2d\	quam	2a\	quam	2a\	quam	2dd\	quam
.	.	.	.	.	.	.	.	4d\	ad-	4a\	ad-	4a\	ad-	4dd\	ad
4d\	-bi-	4f#\	-bi-	4dd\	-bi-	4dd\	-bi-	4d\	-mi-	4a\	-mi-	4a\	-mi-	4dd\	mi-
*	*	*custos:d	*	*	*	*	*	*	*	*custos:g	*	*	*	*	*
!	!	!LO:LB:g=original	!	!	!	!	!	!	!	!LO:LB:g=original	!	!	!	!	!
=32-	=32-	=32-	=32-	=32-	=32-	=32-	=32-	=32-	=32-	=32-	=32-	=32-	=32-	=32-	=32-
1g,>	-le	1d	-le	1dd	-le	1dd,>	-le	2.G/	-ra-	2.gny\	-ra-	2.b\	-ra-	2.dd\	-ra-
.	.	.	.	.	.	.	.	4G/	-bi-	4g\	-bi-	4b\	-bi-	4dd\	-bi-
*	*	*	*	*custos:dd	*	*	*	*	*	*	*	*	*	*	*
!	!	!	!	!LO:LB:g=original	!	!	!	!	!	!	!	!	!	!	!
=33-	=33-	=33-	=33-	=33-	=33-	=33-	=33-	=33-	=33-	=33-	=33-	=33-	=33-	=33-	=33-
2g\	quam	2d/	quam	2dd\	quam	2dd\	quam	1G	-le	1g,>	-le	1b	-le	1dd,>	-le
*	*	*	*	*	*	*	*	*	*Xij	*	*	*	*	*	*
4g\	ad-	4g\	ad-	4bny\	ad-	4dd\	ad-	.	.	.	.	.	.	.	.
4g\	-mi-	4g\	-mi-	4b\	-mi-	4dd\	-mi-	.	.	.	.	.	.	.	.
*custos:g	*	*	*	*	*	*custos:cc	*	*	*	*	*	*	*	*	*
!LO:LB:g=original	!	!	!	!	!	!LO:LB:g=original	!	!	!	!	!	!	!	!	!
=34-	=34-	=34-	=34-	=34-	=34-	=34-	=34-	=34-	=34-	=34-	=34-	=34-	=34-	=34-	=34-
*	*	*	*	*	*	*	*	*	*	*	*	*	*	*	*ij
2.c/	-ra-	2.g\	-ra-	2.g/	-ra-	2.ccny\	-ra-	2c/	q(ua)m	2g\	q(ua)m	2ccny\	quam	2ee\	quam
.	.	.	.	.	.	.	.	4c/	ad-	4g\	ad-	4cc\	ad-	4ee\	ad
4c/	-bi-	4g\	-bi-	4cc\	-bi-	4cc\	-bi-	4c/	-mi-	4g\	-mi-	4cc\	-mi-	4ee\	mi-
*	*	*	*	*	*	*	*	*custos:F	*	*	*	*	*	*	*
!	!	!	!	!	!	!	!	!LO:LB:g=original	!	!	!	!	!	!	!
=35-	=35-	=35-	=35-	=35-	=35-	=35-	=35-	=35-	=35-	=35-	=35-	=35-	=35-	=35-	=35-
2f\	-le	2fny\	-le	2cc\	-le	2cc\	-le	2.F/	-ra-	2.a\	-ra-	2.a\	-ra-	2.ff\	-ra-
2f\	eſt	2f\	eſt	2a\	eſt	2cc\	eſt	.	.	.	.	.	.	.	.
.	.	.	.	.	.	.	.	4F/	-bi-	4a\	-bi-	4a\	-bi-	4ff\	-bi-
=36-	=36-	=36-	=36-	=36-	=36-	=36-	=36-	=36-	=36-	=36-	=36-	=36-	=36-	=36-	=36-
1r	.	1r	.	1r	.	1r	.	2B-X/	-le	2f\	-le	2b-X\	-le	2dd\	-le
*	*	*	*	*	*	*	*	*	*	*	*	*	*	*	*Xij
.	.	.	.	.	.	.	.	2B-,>/	eſt	2f\	eſt	2b-\	eſt	2dd\	eſt
=37-	=37-	=37-	=37-	=37-	=37-	=37-	=37-	=37-	=37-	=37-	=37-	=37-	=37-	=37-	=37-
1.d	no-	1.g	no-	1.b-X	no-	1.dd	no-	1.G	no-	1g	no-	2.b-\	no-	1.dd	no-
.	.	.	.	.	.	.	.	.	.	.	.	4cc\	.	.	.
=38-	=38-	=38-	=38-	=38-	=38-	=38-	=38-	=38-	=38-	=38-	=38-	=38-	=38-	=38-	=38-
.	.	.	.	.	.	.	.	.	.	1d,>	-men	2dd\	.	.	.
2d\	-men	2g\	-men	2b-\	-men	2ee,>\	-men	2G/	-men	.	.	2b-X\	-men	2gg\	-men
=39-	=39-	=39-	=39-	=39-	=39-	=39-	=39-	=39-	=39-	=39-	=39-	=39-	=39-	=39-	=39-
*lig	*	*	*	*	*	*	*	*	*	*	*	*	*	*	*
1A	tu-	2f\	tu-	2cc#X\	tu-	2ee\	tu-	0A	tu-	0a	tu-	0a	tu-	2gg\	tu-
.	.	4e/	.	2dd\	.	1dd\	.	.	.	.	.	.	.	2ff\	.
.	.	4d/	.	.	.	.	.	.	.	.	.	.	.	.	.
=40-	=40-	=40-	=40-	=40-	=40-	=40-	=40-	=40-	=40-	=40-	=40-	=40-	=40-	=40-	=40-
1a	.	1e	.	0a	-um	.	.	.	.	.	.	.	.	1ee	.
.	.	.	.	.	.	2cc#X\	.	.	.	.	.	.	.	.	.
*Xlig	*	*	*	*	*	*	*	*	*	*	*	*	*	*	*
=41-	=41-	=41-	=41-	=41-	=41-	=41-	=41-	=41-	=41-	=41-	=41-	=41-	=41-	=41-	=41-
2d\	-um	2f,>\	-um	.	.	2dd,>\	-um	1d	-um	1f	-um	1a	-um	1dd	-um
2d\	in	2f,>\	in	.	.	2dd\	in	.	.	.	.	.	.	.	.
=42-	=42-	=42-	=42-	=42-	=42-	=42-	=42-	=42-	=42-	=42-	=42-	=42-	=42-	=42-	=42-
2c#X/	U-	2e/	U-	2r	.	2.a/	U-	00r	.	00r	.	00r	.	00r	.
2d\	-ni	2f\	-ni-	2a\	in	.	.	.	.	.	.	.	.	.	.
.	.	.	.	.	.	4a/	-ni-	.	.	.	.	.	.	.	.
=43-	=43-	=43-	=43-	=43-	=43-	=43-	=43-	=43-	=43-	=43-	=43-	=43-	=43-	=43-	=43-
2Bny/	ver-	2d/	-ver-	2bny\	U-	2dd\	-ver-	.	.	.	.	.	.	.	.
2cny/	-sa	2c/,>	-sa	2g/	-ni-	2ee\	-sa	.	.	.	.	.	.	.	.
=44-	=44-	=44-	=44-	=44-	=44-	=44-	=44-	=44-	=44-	=44-	=44-	=44-	=44-	=44-	=44-
2A/	ter-	2f\	ter-	2a\	-ver-	2cc#X\	ter-	.	.	.	.	.	.	.	.
2B-X/	.	2d/	.	2g,>/	-sa	1dd\	.	.	.	.	.	.	.	.	.
=45-	=45-	=45-	=45-	=45-	=45-	=45-	=45-	=45-	=45-	=45-	=45-	=45-	=45-	=45-	=45-
2G/	.	1e	.	2b-X\	ter-	.	.	.	.	.	.	.	.	.	.
2A/	.	.	.	2a\	.	2cc#X\	.	.	.	.	.	.	.	.	.
=46-	=46-	=46-	=46-	=46-	=46-	=46-	=46-	=46-	=46-	=46-	=46-	=46-	=46-	=46-	=46-
1d	-ra	1f	-ra	1a	-ra	1dd	-ra	2r	.	2r	.	2r	.	2r	.
.	.	.	.	.	.	.	.	2d\	in	2f\	in	2a\	in	2dd\	in
*	*	*	*	*	*	*	*	*	*	*	*	*	*	*custos:ee	*
!	!	!	!	!	!	!	!	!	!	!	!	!	!	!LO:LB:g=original	!
=47-	=47-	=47-	=47-	=47-	=47-	=47-	=47-	=47-	=47-	=47-	=47-	=47-	=47-	=47-	=47-
00r	.	00r	.	00r	.	00r	.	2c/	U-	2g\	u-	2cc\	U-	2ee\	U-
.	.	.	.	.	.	.	.	2A/	-ni-	2a\	-ni-	2cc\	-ni-	2ff\	-ni-
=48-	=48-	=48-	=48-	=48-	=48-	=48-	=48-	=48-	=48-	=48-	=48-	=48-	=48-	=48-	=48-
.	.	.	.	.	.	.	.	2Bny/	-ver-	4g\	-ver-	2dd\	-ver-	2dd\	-ver-
.	.	.	.	.	.	.	.	.	.	4e/	.	.	.	.	.
.	.	.	.	.	.	.	.	2c,>/	-sa	1a\	-ſa	2cc,>\	-ſa	2ee\	-sa
=49-	=49-	=49-	=49-	=49-	=49-	=49-	=49-	=49-	=49-	=49-	=49-	=49-	=49-	=49-	=49-
.	.	.	.	.	.	.	.	0d	ter-	.	.	2cc\	ter-	2ff#X\	ter-
.	.	.	.	.	.	.	.	.	.	2g\	ter-	2bny\	.	1gg\	.
=50-	=50-	=50-	=50-	=50-	=50-	=50-	=50-	=50-	=50-	=50-	=50-	=50-	=50-	=50-	=50-
.	.	.	.	.	.	.	.	.	.	1a	.	1a	.	.	.
.	.	.	.	.	.	.	.	.	.	.	.	.	.	2ff#X\	.
=51-	=51-	=51-	=51-	=51-	=51-	=51-	=51-	=51-	=51-	=51-	=51-	=51-	=51-	=51-	=51-
2r	.	2r	.	2r	.	2r	.	1G	-ra	1g	-ra	1b	-ra,	1gg	-ra
2G/	in	2g\	in	2bny\	in	2dd\	in	.	.	.	.	.	.	.	.
*	*	*custos:g	*	*	*	*	*	*	*	*	*	*custos:a	*	*	*
!	!	!LO:LB:g=original	!	!	!	!	!	!	!	!	!	!LO:LB:g=original	!	!	!
=52-	=52-	=52-	=52-	=52-	=52-	=52-	=52-	=52-	=52-	=52-	=52-	=52-	=52-	=52-	=52-
2.c/	U-	2.g\	U-	2.ccny\	U-	2.ee\	U-	1r	.	1r	.	1r	.	1r	.
4c/	-ni-	4g\	-ni-	4cc\	-ni-	4ee\	-ni-	.	.	.	.	.	.	.	.
*custos:d	*	*	*	*custos:a	*	*	*	*	*	*	*	*	*	*	*
!LO:LB:g=original	!	!	!	!LO:LB:g=original	!	!	!	!	!	!	!	!	!	!	!
=53-	=53-	=53-	=53-	=53-	=53-	=53-	=53-	=53-	=53-	=53-	=53-	=53-	=53-	=53-	=53-
2d\	-ver-	2f\	-ver-	2a\	-ver-	2dd\	-ver-	2r	.	2r	.	2r	.	2r	.
2d\	-aſ	2a\	-ſa	2a\,>	-sa	2dd\	-ſa	2d\	in	2f\	in	2a\	in	2ffny\	in
*	*	*	*	*	*	*custos:cc	*	*	*	*custos:a	*	*	*	*	*
!	!	!	!	!	!	!LO:LB:g=original	!	!	!	!LO:LB:g=original	!	!	!	!	!
=54-	=54-	=54-	=54-	=54-	=54-	=54-	=54-	=54-	=54-	=54-	=54-	=54-	=54-	=54-	=54-
0.A	ter-	4a\	ter-	4cc#X\	ter-	2cc#X\	ter-	2.a\	U-	2.a\	u-	4.a\	u-	4.ee\	u-
.	.	4g\	.	4b\	.	.	.	.	.	.	.	.	.	.	.
.	.	.	.	.	.	.	.	.	.	.	.	8a\	-ni-	8ee\	-ni-
.	.	4f\	.	4a\	.	1dd\	.	.	.	.	.	4a\	-ver-	2ff\	-ver-
.	.	4g\	.	4b\	.	.	.	4a\	-ni-	4a\	-ni-	4a\	-ſa	.	.
=55-	=55-	=55-	=55-	=55-	=55-	=55-	=55-	=55-	=55-	=55-	=55-	=55-	=55-	=55-	=55-
.	.	1a	.	4cc#X\	.	.	.	2a\	-ver-	2a\	-ver-	4a\	ter-	1ee,>	-ſa
.	.	.	.	4a\	.	.	.	.	.	.	.	4b\	.	.	.
.	.	.	.	2dd\	.	4cc#X\	.	2a\	-ſa	2a,>\	ſa	4cc\	.	.	.
*	*	*	*	*	*	*	*	*custos:a	*	*	*	*	*	*	*
!	!	!	!	!	!	!	!	!LO:LB:g=original	!	!	!	!	!	!	!
.	.	.	.	.	.	4b/	.	.	.	.	.	4dd\	.	.	.
=56-	=56-	=56-	=56-	=56-	=56-	=56-	=56-	=56-	=56-	=56-	=56-	=56-	=56-	=56-	=56-
.	.	1e	.	0a	-ra	1cc#X	.	1a	ter-	1a	-ter-	2ee\	.	1ee	ter-
.	.	.	.	.	.	.	.	.	.	.	.	2a\	.	.	.
=57-	=57-	=57-	=57-	=57-	=57-	=57-	=57-	=57-	=57-	=57-	=57-	=57-	=57-	=57-	=57-
1d	-ra	1f#X	-ra	.	.	1dd	-ra	1d,>	-ra	1f#X	-ra	1a,>	-ra	1dd	-ra
=58-	=58-	=58-	=58-	=58-	=58-	=58-	=58-	=58-	=58-	=58-	=58-	=58-	=58-	=58-	=58-
00r	.	00r	.	00r	.	00r	.	2.A/	quo-	2.e/	quo-	2.a\	quo-	2.cc#X\	quo-
.	.	.	.	.	.	.	.	4A/	-ni-	4e/	-ni-	4a\	-ni-	4cc#\	-ni-
=59-	=59-	=59-	=59-	=59-	=59-	=59-	=59-	=59-	=59-	=59-	=59-	=59-	=59-	=59-	=59-
.	.	.	.	.	.	.	.	2A/,>	-am	2e,>/	-am	2a\	-am	2cc#y,>\	-am
.	.	.	.	.	.	.	.	4d\	e-	4fny\	e-	4a\	e-	4dd\	e-
.	.	.	.	.	.	.	.	4c#X/	-le-	4e/	-le-	4a\	-le-	4ee\	-le-
=60-	=60-	=60-	=60-	=60-	=60-	=60-	=60-	=60-	=60-	=60-	=60-	=60-	=60-	=60-	=60-
.	.	.	.	.	.	.	.	4d\	-va-	4d/	-va-	4a\	-va-	4ff\	-va-
.	.	.	.	.	.	.	.	4B-X/	-ta	4d/	-ta	4g/	-ta	4dd\	-ta
.	.	.	.	.	.	.	.	2A/	eſt	2e,>/	eſt	2a\	eſt	2cc#X\	eſt
=61-	=61-	=61-	=61-	=61-	=61-	=61-	=61-	=61-	=61-	=61-	=61-	=61-	=61-	=61-	=61-
.	.	.	.	.	.	.	.	1cny	ma-	1e	ma-	2g/	ma-	1ee	Ma-
.	.	.	.	.	.	.	.	.	.	.	.	4cc\	-gni-	.	.
.	.	.	.	.	.	.	.	.	.	.	.	4cc\	-fi-	.	.
=62-	=62-	=62-	=62-	=62-	=62-	=62-	=62-	=62-	=62-	=62-	=62-	=62-	=62-	=62-	=62-
00r	.	00r	.	00r	.	00r	.	2d\	-gni-	2f\	-gni-	4.a\	-cen-	2dd\	-gni-
.	.	.	.	.	.	.	.	.	.	.	.	8a\	-ti-	.	.
*	*	*	*	*	*	*	*	*	*	*	*	*	*	*custos:ff	*
!	!	!	!	!	!	!	!	!	!	!	!	!	!	!LO:LB:g=original	!
.	.	.	.	.	.	.	.	2d\	-fi-	2f\	-fi-	4dd,>\	-a	2ff\	-fi-
.	.	.	.	.	.	.	.	.	.	.	.	4dd\	ma-	.	.
=63-	=63-	=63-	=63-	=63-	=63-	=63-	=63-	=63-	=63-	=63-	=63-	=63-	=63-	=63-	=63-
.	.	.	.	.	.	.	.	2.e\	-can-	2.g\	-cen-	4b\	-gni-	2.ee\	-cen-
.	.	.	.	.	.	.	.	.	.	.	.	4b\	-fi-	.	.
.	.	.	.	.	.	.	.	.	.	.	.	4.b\	-cen-	.	.
.	.	.	.	.	.	.	.	4e\	-ti-	4g\	-ti-	.	.	4dd\	-ti-
.	.	.	.	.	.	.	.	.	.	.	.	8b\	-ti-	.	.
=64-	=64-	=64-	=64-	=64-	=64-	=64-	=64-	=64-	=64-	=64-	=64-	=64-	=64-	=64-	=64-
.	.	.	.	.	.	.	.	1f	-a	1a,>	-a	2a\	-a	1ccny	-a
.	.	.	.	.	.	.	.	.	.	.	.	1cc\	tu-	.	.
=65-	=65-	=65-	=65-	=65-	=65-	=65-	=65-	=65-	=65-	=65-	=65-	=65-	=65-	=65-	=65-
.	.	.	.	.	.	.	.	1d	tu-	4f\	tu-	.	.	1ff	tu-
.	.	.	.	.	.	.	.	.	.	4g\	.	.	.	.	.
*	*	*	*	*	*	*	*	*	*	*	*	*custos:b	*	*	*
!	!	!	!	!	!	!	!	!	!	!	!	!LO:LB:g=original	!	!	!
.	.	.	.	.	.	.	.	.	.	4a\	.	2b\	.	.	.
.	.	.	.	.	.	.	.	.	.	4f\	.	.	.	.	.
=66-	=66-	=66-	=66-	=66-	=66-	=66-	=66-	=66-	=66-	=66-	=66-	=66-	=66-	=66-	=66-
0r	.	0r	.	0r	.	0r	.	2c,>/	-a	2g\	.	1cc	-a	2ee,>\	-a
.	.	.	.	.	.	.	.	4A/	ſu-	2a\,>	-a	.	.	4cc\	ſu-
.	.	.	.	.	.	.	.	4Bny/	.	.	.	.	.	4dd\	.
=67-	=67-	=67-	=67-	=67-	=67-	=67-	=67-	=67-	=67-	=67-	=67-	=67-	=67-	=67-	=67-
.	.	.	.	.	.	.	.	2c/	.	2g\	ſu-	2.cc\	ſu-	2ee\	.
*	*	*	*	*	*	*	*	*	*	*custos:f	*	*	*	*	*
!	!	!	!	!	!	!	!	!	!	!LO:LB:g=original	!	!	!	!	!
.	.	.	.	.	.	.	.	2A/	-per	4f\	-per	.	.	2cc#X\,>	-per
.	.	.	.	.	.	.	.	.	.	4e,>/	.	4a,>\	-per	.	.
=68-	=68-	=68-	=68-	=68-	=68-	=68-	=68-	=68-	=68-	=68-	=68-	=68-	=68-	=68-	=68-
1r	.	1r	.	1r	.	1r	.	1B-X	coe-	2.d/	-coe-	2a\	coe-	1.dd	coe-
.	.	.	.	.	.	.	.	.	.	.	.	2g/	.	.	.
.	.	.	.	.	.	.	.	.	.	4e/	.	.	.	.	.
=69-	=69-	=69-	=69-	=69-	=69-	=69-	=69-	=69-	=69-	=69-	=69-	=69-	=69-	=69-	=69-
2r	.	2r	.	2r	.	2r	.	1A	-los.	2f\	.	1a	-los	.	.
4a\	Ex	4a,>\	Ex	4cc#X\	Ex-	4ee\	Ex	.	.	2e/	-los	.	.	2cc#X\	-los
4a\	o-	4a\	o-	4cc#\	-o-	4ee\	o-	.	.	.	.	.	.	.	.
*	*	*	*	*	*	*	*	*custos:A	*	*	*	*	*	*	*
!	!	!	!	!	!	!	!	!LO:LB:g=original	!	!	!	!	!	!	!
=70-	=70-	=70-	=70-	=70-	=70-	=70-	=70-	=70-	=70-	=70-	=70-	=70-	=70-	=70-	=70-
4a\	-re	4a,>\	-re	4cc#\	-re	4ee\	-re	00r	.	00r	.	00r	.	00r	.
4d\	in	4a\	in	4dd\	in	4ff#X\	in	.	.	.	.	.	.	.	.
2.g\	fan-	2.b\	fan-	2.dd\	fan-	2.gg\	fan-	.	.	.	.	.	.	.	.
=71-	=71-	=71-	=71-	=71-	=71-	=71-	=71-	=71-	=71-	=71-	=71-	=71-	=71-	=71-	=71-
4g\	-ti-	4b\	-ti-	4dd\	-ti-	4gg\	-ti-	.	.	.	.	.	.	.	.
2e\,>	-um	2cc\	-um	2ee\	-um	2gg\	-um	.	.	.	.	.	.	.	.
=72-	=72-	=72-	=72-	=72-	=72-	=72-	=72-	=72-	=72-	=72-	=72-	=72-	=72-	=72-	=72-
4f\	et	4a\	et	4ccny\	et	4ffny\	et	.	.	.	.	.	.	.	.
4f\	la-	4a\	la-	4cc\	la-	4ff\	la-	.	.	.	.	.	.	.	.
2.d\	-cten-	2.a\	-cten-	2.dd\	-cten-	2.ff\	-cter-	.	.	.	.	.	.	.	.
=73-	=73-	=73-	=73-	=73-	=73-	=73-	=73-	=73-	=73-	=73-	=73-	=73-	=73-	=73-	=73-
4d\	-ti-	4b\	-ti-	4dd\	-ti-	4ff\	-ti-	.	.	.	.	.	.	.	.
2c/	-um	2g\	-um	2g/	-um	2ee\	-um	.	.	.	.	.	.	.	.
=74-	=74-	=74-	=74-	=74-	=74-	=74-	=74-	=74-	=74-	=74-	=74-	=74-	=74-	=74-	=74-
4c/	per-	4e/	per-	1r	.	1r	.	00r	.	00r	.	00r	.	00r	.
4d\	-fe-	4fny\	-fe-	.	.	.	.	.	.	.	.	.	.	.	.
4e\	-ci-	4g\	-ci-	.	.	.	.	.	.	.	.	.	.	.	.
4f#X\	-ſti	4a\	-ſti	.	.	.	.	.	.	.	.	.	.	.	.
*	*	*custos:g	*	*	*	*	*	*	*	*	*	*	*	*	*
!	!	!LO:LB:g=original	!	!	!	!	!	!	!	!	!	!	!	!	!
=75-	=75-	=75-	=75-	=75-	=75-	=75-	=75-	=75-	=75-	=75-	=75-	=75-	=75-	=75-	=75-
2g\	lau-	2g\	lau-	4b\	per-	4dd\	per-	.	.	.	.	.	.	.	.
.	.	.	.	4a\	-fe-	4cc#X\	-fe-	.	.	.	.	.	.	.	.
2g\	-dem	2g,>\	-dem	4b\	-ci-	4dd\	-ci-	.	.	.	.	.	.	.	.
.	.	.	.	4cc#X\	-sti	4ee\	-ſti	.	.	.	.	.	.	.	.
*custos:d	*	*	*	*custos:dd	*	*	*	*	*	*	*	*	*	*	*
!LO:LB:g=original	!	!	!	!LO:LB:g=original	!	!	!	!	!	!	!	!	!	!	!
=76-	=76-	=76-	=76-	=76-	=76-	=76-	=76-	=76-	=76-	=76-	=76-	=76-	=76-	=76-	=76-
*	*ij	*	*ij	*	*	*	*	*	*	*	*	*	*	*	*
4d\	per-	4f\	per-	2dd\	lau-	2ff\	lau-	.	.	.	.	.	.	.	.
4e\	-fe-	4g\	-fe-	.	.	.	.	.	.	.	.	.	.	.	.
4fny\	-ci-	4a\	-ci-	2dd,>\	-dem	2ff\	-dem	.	.	.	.	.	.	.	.
4g\	-ſti	4b\	-ſti	.	.	.	.	.	.	.	.	.	.	.	.
*	*	*	*	*	*	*custos:ee	*	*	*	*	*	*	*	*	*
!	!	!	!	!	!	!LO:LB:g=original	!	!	!	!	!	!	!	!	!
=77-	=77-	=77-	=77-	=77-	=77-	=77-	=77-	=77-	=77-	=77-	=77-	=77-	=77-	=77-	=77-
*	*	*	*	*	*ij	*	*	*	*	*	*	*	*	*	*
2a\	lau-	2a\	lau-	4ccny\	per-	4ee\	per-	.	.	.	.	.	.	.	.
.	.	.	.	4b\	-fe-	4dd\	-fe-	.	.	.	.	.	.	.	.
2a\	-dem	2a\	-dem	4cc\	-ci-	4ee\	-ci-	.	.	.	.	.	.	.	.
.	.	.	.	4dd\	-sti	4ff#X\	-ſti	.	.	.	.	.	.	.	.
*	*Xij	*	*Xij	*	*	*	*	*	*	*	*	*	*	*	*
=78-	=78-	=78-	=78-	=78-	=78-	=78-	=78-	=78-	=78-	=78-	=78-	=78-	=78-	=78-	=78-
1e	pro-	1g	pro-	2ee\	lau-	2gg\	lau-	00r	.	00r	.	00r	.	00r	.
.	.	.	.	2ee\	-dem	2gg,>\	-dem	.	.	.	.	.	.	.	.
*	*	*	*	*	*Xij	*	*	*	*	*	*	*	*	*	*
=79-	=79-	=79-	=79-	=79-	=79-	=79-	=79-	=79-	=79-	=79-	=79-	=79-	=79-	=79-	=79-
2c/	-pte-	2g\	-pte-	1r	.	1ee	Pro-	.	.	.	.	.	.	.	.
2c/	-ri	2g\	-ri	.	.	.	.	.	.	.	.	.	.	.	.
=80-	=80-	=80-	=80-	=80-	=80-	=80-	=80-	=80-	=80-	=80-	=80-	=80-	=80-	=80-	=80-
2.f\	ni-	2.f\	ni-	2cc\	pro-	2ccny\	-pte-	.	.	.	.	.	.	.	.
.	.	.	.	2a\	-pte-	2cc\	-ri	.	.	.	.	.	.	.	.
4f\	-mi-	4f\	-mi	.	.	.	.	.	.	.	.	.	.	.	.
=81-	=81-	=81-	=81-	=81-	=81-	=81-	=81-	=81-	=81-	=81-	=81-	=81-	=81-	=81-	=81-
1d	-cos	2a\	cos	2a\	-ri	2.ffny\	ni-	.	.	.	.	.	.	.	.
.	.	2b,>\	.	4.dd\	ni-	.	.	.	.	.	.	.	.	.	.
.	.	.	.	.	.	4ff\	-mi-	.	.	.	.	.	.	.	.
.	.	.	.	8dd\	-mi	.	.	.	.	.	.	.	.	.	.
=82-	=82-	=82-	=82-	=82-	=82-	=82-	=82-	=82-	=82-	=82-	=82-	=82-	=82-	=82-	=82-
0e	tu-	2g#X\	tu-	2dd,>\	cos	1ee,>	-cus	0r	.	0r	.	0r	.	0r	.
.	.	1a\	.	2dd\	tu-	.	.	.	.	.	.	.	.	.	.
=83-	=83-	=83-	=83-	=83-	=83-	=83-	=83-	=83-	=83-	=83-	=83-	=83-	=83-	=83-	=83-
.	.	.	.	2cc\	.	1ee	su-	.	.	.	.	.	.	.	.
.	.	2g#X\	.	1b\	.	.	.	.	.	.	.	.	.	.	.
=84-	=84-	=84-	=84-	=84-	=84-	=84-	=84-	=84-	=84-	=84-	=84-	=84-	=84-	=84-	=84-
2A/	-os	2a,>\	-os	.	.	2cc\	-os	4A/	Ex	4a\	Ex	4cc#X\	Ex	4ee\	Ex
.	.	.	.	.	.	.	.	4A/	o-	4a\	o-	4cc#\	o-	4ee\	o-
2r	.	2r	.	2a\	-os	2r	.	4A/	-re	4a\	-re	4cc#\	-re	4ee\	-re
.	.	.	.	.	.	.	.	4d\	in	4a\	in	4dd\	in	4ff\	in
=85-	=85-	=85-	=85-	=85-	=85-	=85-	=85-	=85-	=85-	=85-	=85-	=85-	=85-	=85-	=85-
*	*	*	*	*	*	*	*ij	*	*	*	*	*	*	*	*
4a\	Ex	4e/	Ex	4a\	Ex-	4cc#X\	Ex-	4.A/	fan-	4.a\	fan-	4.cc#X\	fan-	4.ee\	fan-
4a\	o-	4e/	o-	4a\	-o-	4cc#\	-o-	.	.	.	.	.	.	.	.
.	.	.	.	.	.	.	.	8A/	-ti-	8a\	-ti-	8cc#\	-ti-	8ee\	-ti-
4a\	-re	4e/	-re	4a\	-re	4cc#\	-re	4A/	-um	4a\	-um	4cc#\	-um	4ee\	-um
4d\	in	4f\	in	4a\	in	4dd\	in	4r	.	4r	.	4r	.	4r	.
=86-	=86-	=86-	=86-	=86-	=86-	=86-	=86-	=86-	=86-	=86-	=86-	=86-	=86-	=86-	=86-
*	*	*	*	*	*	*	*	*	*ij	*	*ij	*	*ij	*	*ij
4.a\	fan-	4.e/	fan-	4.a\	fan-	4.ee\	fan-	4A/	Ex	4a\	Ex	4cc#X\	Ex	4ee\	Ex
.	.	.	.	.	.	.	.	4A/	o-	4a\	o-	4cc#\	o-	4ee\	o-
8a\	-ti-	8e/	-ti-	8a\	-ti-	8ee\	-ti-	.	.	.	.	.	.	.	.
4a\	-um	4e/	-um	4a\	-um	4ee\	-um	4A/	-re	4a\	-re	4cc#\	-re	4ee\	-re
4r	.	4r	.	4r	.	4r	.	4d\	in	4a\	in	4dd\	in	4ff\	in
*	*	*custos:e	*	*	*	*	*	*	*	*	*	*	*	*	*
!	!	!LO:LB:g=original	!	!	!	!	!	!	!	!	!	!	!	!	!
=87-	=87-	=87-	=87-	=87-	=87-	=87-	=87-	=87-	=87-	=87-	=87-	=87-	=87-	=87-	=87-
*	*	*	*ij	*	*	*	*	*	*	*	*	*	*	*	*
4a\	Ex	4e/	Ex	4a\	ex-	4cc#X\	Ex-	4.A/	fan-	4.a\	fan-	4.cc#X\	fan-	4.ee\	fan-
4a\	o-	4e/	o-	4a\	-o-	4cc#\	-o-	.	.	.	.	.	.	.	.
*	*	*	*	*custos:a	*	*	*	*	*	*	*	*	*	*	*
!	!	!	!	!LO:LB:g=original	!	!	!	!	!	!	!	!	!	!	!
.	.	.	.	.	.	.	.	8A/	-ti-	8a\	-ti-	8cc#\	-ti-	8ee\	-ti-
4a\	-re	4e/	-re	4a\	-re	4cc#\	-re	4A/	-um	4a\	-um	4cc#\	-um	4ee\	-um
4d\	in	4f\	in	4a\	in	4dd\	in	4r	.	4r	.	4r	.	4r	.
*	*	*	*	*	*	*	*	*	*Xij	*	*Xij	*	*Xij	*	*Xij
*custos:a	*	*	*	*	*	*	*	*	*	*	*	*	*	*	*
!LO:LB:g=original	!	!	!	!	!	!	!	!	!	!	!	!	!	!LO:LB:g=original	!
=88-	=88-	=88-	=88-	=88-	=88-	=88-	=88-	=88-	=88-	=88-	=88-	=88-	=88-	=88-	=88-
4.a\	fan-	4.a\	fan-	4.a\	fan-	4.ee\	fan-	2r	.	2r	.	2r	.	2r	.
8a\	-ti-	8a\	-ti-	8a\	-ti-	8ee\	-ci-	.	.	.	.	.	.	.	.
*	*	*	*	*	*	*custos:ee	*	*	*	*	*	*	*	*	*
!	!	!	!	!	!	!LO:LB:g=original	!	!	!	!	!	!	!	!	!
2a\	-um	2a\	-um	4a\	-um	2ee\	-um	4A/	et	4c/	et	4a\	et	4cc#X\	et
.	.	.	.	4r	.	.	.	4A/	la-	4c/	la	4a\	la-	4cc#\	la-
*	*	*	*Xij	*	*	*	*Xij	*	*	*	*	*	*	*	*
=89-	=89-	=89-	=89-	=89-	=89-	=89-	=89-	=89-	=89-	=89-	=89-	=89-	=89-	=89-	=89-
00r	.	00r	.	00r	.	00r	.	2.G/	-cten-	2.g\	cten-	2.b-X\	-cten-	2.dd\	-cten-
.	.	.	.	.	.	.	.	.	.	.	.	.	.	.	.
.	.	.	.	.	.	.	.	4G/	-ti-	4g\	-ti-	4b-\	-ti-	4ee\	-ti-
*	*	*	*	*	*	*	*	*	*	*	*	*custos:a	*	*	*
!	!	!	!	!	!	!	!	!	!	!	!	!LO:LB:g=original	!	!	!
=90-	=90-	=90-	=90-	=90-	=90-	=90-	=90-	=90-	=90-	=90-	=90-	=90-	=90-	=90-	=90-
.	.	.	.	.	.	.	.	2F,>/	-um	2c/	-um	2a,>\	-um	2ff,>\	-um
*	*	*	*	*	*	*	*	*	*	*custos:a	*	*	*	*	*
!	!	!	!	!	!	!	!	!	!	!LO:LB:g=original	!	!	!	!	!
.	.	.	.	.	.	.	.	4.A/	per-	4.a\	per-	4.ccny\	per-	4.ff\	per-
.	.	.	.	.	.	.	.	8Bny/	-fe-	8a\	-fe-	8cc\	-fe-	8ff\	-fe-
=91-	=91-	=91-	=91-	=91-	=91-	=91-	=91-	=91-	=91-	=91-	=91-	=91-	=91-	=91-	=91-
.	.	.	.	.	.	.	.	4c/	-ci-	4g\	-ci-	4cc\	-ci-	4ee\	-ci-
!	!	!	!	!	!	!	!	!LO:TX:b:t=sol.	!	!	!	!	!	!	!
.	.	.	.	.	.	.	.	4A/	-sti	4g,>\	-sti	4bny,>\	-ſti	4dd,>\	-ſti
*	*	*	*	*	*	*	*	*	*	*	*ij	*	*ij	*	*ij
*	*	*	*	*	*	*	*	*custos:B	*	*	*	*	*	*	*
!	!	!	!	!	!	!	!	!LO:LB:g=original	!	!	!	!	!	!	!
.	.	.	.	.	.	.	.	4.B/	per-	4.g\	per-	4.dd\	per-	4.dd\	per-
.	.	.	.	.	.	.	.	8c/	-fe-	8g\	-fe-	8dd\	-fe-	8ee\	-fe-
=92-	=92-	=92-	=92-	=92-	=92-	=92-	=92-	=92-	=92-	=92-	=92-	=92-	=92-	=92-	=92-
.	.	.	.	.	.	.	.	4d\	-ci-	4f\	-ci-	4dd\	-ci-	4ff\	-ci-
.	.	.	.	.	.	.	.	4A,>/	-ſti	4a,>\	-sti	4cc,>\	-ſti	4ee,>\	-ſti
*	*	*	*	*	*	*	*	*	*	*	*Xij	*	*Xij	*	*Xij
.	.	.	.	.	.	.	.	4.c/	lau-	8g\L	lau-	2cc\	lau-	1ee\	lau-
.	.	.	.	.	.	.	.	.	.	8e\J	.	.	.	.	.
.	.	.	.	.	.	.	.	.	.	2a\	.	.	.	.	.
.	.	.	.	.	.	.	.	8d\	.	.	.	.	.	.	.
=93-	=93-	=93-	=93-	=93-	=93-	=93-	=93-	=93-	=93-	=93-	=93-	=93-	=93-	=93-	=93-
00r	.	00r	.	00r	.	00r	.	2e\	.	.	.	2b\	.	.	.
.	.	.	.	.	.	.	.	.	.	4g#X\	-dem	.	.	.	.
.	.	.	.	.	.	.	.	2A/,>	-dem	2a\	tu-	2cc\	-dem	2ee,>\	-dem
=94-	=94-	=94-	=94-	=94-	=94-	=94-	=94-	=94-	=94-	=94-	=94-	=94-	=94-	=94-	=94-
.	.	.	.	.	.	.	.	1e	tu-	4g#X\	.	4b\	tu-	1ee	tu-
.	.	.	.	.	.	.	.	.	.	2a\	.	4cc\	.	.	.
.	.	.	.	.	.	.	.	.	.	.	.	2b\	.	.	.
.	.	.	.	.	.	.	.	.	.	4g#X\	.	.	.	.	.
=95-	=95-	=95-	=95-	=95-	=95-	=95-	=95-	=95-	=95-	=95-	=95-	=95-	=95-	=95-	=95-
.	.	.	.	.	.	.	.	2A,>/	-am	2a,>\	-am	2cc#X,>\	-am	2ee,>\	-am
.	.	.	.	.	.	.	.	2A/	Ut	2a\	Ut	2cc#\	Ut	2ee\	Ut
=96-	=96-	=96-	=96-	=96-	=96-	=96-	=96-	=96-	=96-	=96-	=96-	=96-	=96-	=96-	=96-
.	.	.	.	.	.	.	.	4.d\	de-	4.f\	de-	4.a\	de-	4.dd\	des-
.	.	.	.	.	.	.	.	8d\	-ftru-	8f\	-fru-	8a\	-ſtru-	8dd\	-tru-
.	.	.	.	.	.	.	.	2d\	-as	2f\	-as	2a\	-as	2dd\,>	-as
=97-	=97-	=97-	=97-	=97-	=97-	=97-	=97-	=97-	=97-	=97-	=97-	=97-	=97-	=97-	=97-
0r	.	0r	.	0r	.	0r	.	4.G/	i-	4.gny\	i-	4.b\	i-	4.dd\	i-
.	.	.	.	.	.	.	.	8A/	-ni-	8g\	-ni-	8ccny\	-ni-	8dd\	-ni-
.	.	.	.	.	.	.	.	4B/	-mi-	4g\	-mi-	4dd\	-mi-	4dd\	-mi-
.	.	.	.	.	.	.	.	4c/	-cum	4g\,>	-cum	4cc,>\	-cum	4ee\	-cum
*	*	*	*	*	*	*	*	*	*	*	*	*	*	*custos:cc	*
!	!	!	!	!	!	!	!	!	!	!	!	!	!	!LO:PB:g=original	!
=98-	=98-	=98-	=98-	=98-	=98-	=98-	=98-	=98-	=98-	=98-	=98-	=98-	=98-	=98-	=98-
.	.	.	.	.	.	.	.	4.A/	et	2.a\	et	2.cc,>\	et	4.ccny\	et
.	.	.	.	.	.	.	.	8B/	.	.	.	.	.	8dd\	.
.	.	.	.	.	.	.	.	4c/	U-	.	.	.	.	4ee\	Vi-
.	.	.	.	.	.	.	.	4d\	.	4a\	U-	4a\	U-	4ff\	.
*	*	*	*	*	*	*	*	*	*	*custos:a	*	*	*	*	*
!	!	!	!	!	!	!	!	!	!	!LO:PB:g=original	!	!	!	!	!
=99-	=99-	=99-	=99-	=99-	=99-	=99-	=99-	=99-	=99-	=99-	=99-	=99-	=99-	=99-	=99-
1r	.	1r	.	1r	.	1r	.	1A	-to-	1a	-to-	4cc#X\	-to-	4ee\	-to-
.	.	.	.	.	.	.	.	.	.	.	.	2dd\	.	4ff\	.
.	.	.	.	.	.	.	.	.	.	.	.	.	.	2ee\	.
.	.	.	.	.	.	.	.	.	.	.	.	4cc#X\	.	.	.
=100-	=100-	=100-	=100-	=100-	=100-	=100-	=100-	=100-	=100-	=100-	=100-	=100-	=100-	=100-	=100-
4.d\	quo-	4.a\	quo-	4.dd\	quo-	4.ff\	quo-	1d	-rem	1f#X	-rem	1dd	-rem	1dd	-rem
8d\	-ni-	8a\	-ni-	8dd\	-ni-	8ff\	-ni-	.	.	.	.	.	.	.	.
4d\	-am	4a\	-am	4dd\	-am	4ff\	-am	.	.	.	.	.	.	.	.
4d\	Vi-	4a\	Vi-	4dd\	Vi-	4ff\	vi-	.	.	.	.	.	.	.	.
*	*	*	*	*	*	*	*	*	*	*	*	*custos:cc	*	*	*
!	!	!	!	!	!	!	!	!	!	!	!	!LO:PB:g=original	!	!	!
=101-	=101-	=101-	=101-	=101-	=101-	=101-	=101-	=101-	=101-	=101-	=101-	=101-	=101-	=101-	=101-
2d\	-de-	2a\	-de-	2dd\	-de-	2ff\	-de-	0r	.	0r	.	0r	.	0r	.
2A/	-bo	2a\	-bo	2cc\	-bo	2ee\	-bo	.	.	.	.	.	.	.	.
=102-	=102-	=102-	=102-	=102-	=102-	=102-	=102-	=102-	=102-	=102-	=102-	=102-	=102-	=102-	=102-
2B-X/	cae-	1f	cae-	2b-X\	cae-	2dd\	cae-	.	.	.	.	.	.	.	.
2B-/	-los	.	.	2b-,>\	-los	2dd\	-los	.	.	.	.	.	.	.	.
=103-	=103-	=103-	=103-	=103-	=103-	=103-	=103-	=103-	=103-	=103-	=103-	=103-	=103-	=103-	=103-
1F	tu-	2f\	-los	1a	[tu]-	1ccny	tu-	4.f\	quo-	4.a\	-quo-	4.ccny\	quo-	4.ff\	quo-
.	.	.	.	.	.	.	.	8f\	-ni-	8a\	-ni-	8cc\	-ni-	8ff\	-ni-
*	*	*	*	*	*	*	*	*custos:f	*	*	*	*	*	*	*
!	!	!	!	!	!	!	!	!LO:PB:g=original	!	!	!	!	!	!	!
.	.	1f\	tu-	.	.	.	.	4f\	-am	4a\	-am	4cc\	-am	4ff\	-am
.	.	.	.	.	.	.	.	4f\	vi-	4a\	Vi-	4cc\	vi-	4ff\	vi-
=104-	=104-	=104-	=104-	=104-	=104-	=104-	=104-	=104-	=104-	=104-	=104-	=104-	=104-	=104-	=104-
2F/	-os	.	.	2a\	-os	2cc\	-os	2f\	-de-	2a\	-de-	2cc\	-de-	2ff\	-de-
2r	.	2f\	-os	2r	.	2r	.	2c/	-bo	2g\,>	-bo	2cc\	-bo	2ee\	-bo
=105-	=105-	=105-	=105-	=105-	=105-	=105-	=105-	=105-	=105-	=105-	=105-	=105-	=105-	=105-	=105-
!	!	!LO:TX:t=P:problem=w źródle nadprogramowa pauza	!	!	!	!	!	!	!	!	!	!	!	!	!
1r	.	1r	.	1r	.	1r	.	2d\	cae-	2fny\	cae-	2a\	cae-	2dd\	cae-
.	.	.	.	.	.	.	.	2d\	-los	2f\	-los	2a\	-los	2dd,>\	-los
=106-	=106-	=106-	=106-	=106-	=106-	=106-	=106-	=106-	=106-	=106-	=106-	=106-	=106-	=106-	=106-
*	*ij	*	*	*	*	*	*ij	*	*	*	*	*	*	*	*
4.a\	quo-	4.a\	quo-	4.cc\	quo-	4.ee\	quo-	1A	tu-	1e	tu-	1a	tu-	1cc	tu-
8a\	-ni-	8a\	-ni-	8cc\	-ni-	8ee\	-ni-	.	.	.	.	.	.	.	.
4a\	-am	4a\	-am	4cc\	-am	4ee\	-am	.	.	.	.	.	.	.	.
4a\	Vi-	4a\	vi-	4cc\	vi-	4ee\	vi-	.	.	.	.	.	.	.	.
=107-	=107-	=107-	=107-	=107-	=107-	=107-	=107-	=107-	=107-	=107-	=107-	=107-	=107-	=107-	=107-
2a\	-de-	2a\	-de-	2cc\	-de-	2ee\	-de-	2A/	-os	2e/,>	-os	2a\	-os	2cc,>\	-os
2e\	-bo	2gny\	-bo	2bny\	-bo	2ee\	-bo	2r	.	2r	.	2r	.	2r	.
*	*	*custos:f	*	*	*	*	*	*	*	*	*	*	*	*	*
!	!	!LO:LB:g=original	!	!	!	!	!	!	!	!	!	!	!	!	!
=108-	=108-	=108-	=108-	=108-	=108-	=108-	=108-	=108-	=108-	=108-	=108-	=108-	=108-	=108-	=108-
2f\	cae-	2f\	cae-	2a\	cae-	2cc\	cae-	1r	.	1r	.	1r	.	1r	.
2f\	-los	2f\	-los	2a\	-los	2cc\	-los	.	.	.	.	.	.	.	.
*	*	*	*	*custos:cc	*	*	*	*	*	*	*	*	*	*	*
!	!	!	!	!LO:LB:g=original	!	!	!	!	!	!	!	!	!	!	!
=109-	=109-	=109-	=109-	=109-	=109-	=109-	=109-	=109-	=109-	=109-	=109-	=109-	=109-	=109-	=109-
*	*	*	*	*	*	*	*	*	*	*	*	*	*ij	*	*ij
1c	tu-	1g	tu-	1cc	tu-	1ee	tu-	4.c/	quo-	4.g\	quo-	4.cc\	quo-	4.ee\	quo-
.	.	.	.	.	.	.	.	8c/	-ni-	8g\	-ni-	8cc\	-ni-	8ee\	-ni-
.	.	.	.	.	.	.	.	4c/	-am	4g\	-am	4cc\	-am	4ee\	-am
.	.	.	.	.	.	.	.	4c/	vi-	4g\	vi-	4cc\	vi-	4ee\	vi-
=110-	=110-	=110-	=110-	=110-	=110-	=110-	=110-	=110-	=110-	=110-	=110-	=110-	=110-	=110-	=110-
2c/	-os	2g\	-os	2cc\	-os	2ee\	-os	2c/	-de-	2g\	-de-	2cc\	-de-	2ee\	-de-
2r	.	2r	.	2r	.	2r	.	2G/	-bo	2g\	-bo	2b\	-bo	2dd\	-bo
*	*Xij	*	*	*	*	*	*Xij	*	*	*	*	*	*	*	*
=111-	=111-	=111-	=111-	=111-	=111-	=111-	=111-	=111-	=111-	=111-	=111-	=111-	=111-	=111-	=111-
00r	.	00r	.	00r	.	00r	.	2A/	cae-	2e/	cae-	2a\	cae-	2.cc\	cae-
.	.	.	.	.	.	.	.	2A/	-los	2e/,>	-los	2a\	-los	.	.
.	.	.	.	.	.	.	.	.	.	.	.	.	.	4dd\	-los
*	*	*	*	*	*	*	*	*	*	*	*	*	*	*custos:ee	*
!	!	!	!	!	!	!	!	!	!	!	!	!	!	!LO:LB:g=original	!
=112-	=112-	=112-	=112-	=112-	=112-	=112-	=112-	=112-	=112-	=112-	=112-	=112-	=112-	=112-	=112-
.	.	.	.	.	.	.	.	2e\	tu-	2e/	tu-	2g#X/	tu-	2ee\	tu-
.	.	.	.	.	.	.	.	2A/,>	-os	2e/,>	-os	2a\	-os	2cc#X,>\	-os
*	*	*	*	*	*	*	*	*	*	*	*	*	*Xij	*	*Xij
=113-	=113-	=113-	=113-	=113-	=113-	=113-	=113-	=113-	=113-	=113-	=113-	=113-	=113-	=113-	=113-
.	.	.	.	.	.	.	.	2.B-X/	o-	2.d/	o-	2r	.	2.dd\	o-
.	.	.	.	.	.	.	.	.	.	.	.	4.gny/	o-	.	.
.	.	.	.	.	.	.	.	4B-/	-pe-	4f\	-pe-	.	.	4dd\	-pe-
.	.	.	.	.	.	.	.	.	.	.	.	8g/	-pe-	.	.
=114-	=114-	=114-	=114-	=114-	=114-	=114-	=114-	=114-	=114-	=114-	=114-	=114-	=114-	=114-	=114-
.	.	.	.	.	.	.	.	1A,>	-ra	1a	-ra	1a,>	-ra	1cc#X,>	-ra
*	*	*	*	*	*	*	*	*	*	*custos:f	*	*	*	*	*
!	!	!	!	!	!	!	!	!	!	!LO:LB:g=original	!	!	!	!	!
=115-	=115-	=115-	=115-	=115-	=115-	=115-	=115-	=115-	=115-	=115-	=115-	=115-	=115-	=115-	=115-
00r	.	00r	.	00r	.	00r	.	2.d\	ma-	2.f\	ma-	2.a\	ma-	2.dd\	ma-
.	.	.	.	.	.	.	.	4d\	-nu-	4f\	-nu	4a\	-nu-	4dd\	-nu
=116-	=116-	=116-	=116-	=116-	=116-	=116-	=116-	=116-	=116-	=116-	=116-	=116-	=116-	=116-	=116-
.	.	.	.	.	.	.	.	2c\	-u(m)	2g\	um	2cc\	-um	2ee\	um
.	.	.	.	.	.	.	.	2A/	tu-	2a\	tu-	2cc\	tu-	2ccny\	tu-
*	*	*	*	*	*	*	*	*custos:e	*	*	*	*custos:b	*	*	*
!	!	!	!	!	!	!	!	!LO:LB:g=original	!	!	!	!LO:LB:g=original	!	!	!
=117-	=117-	=117-	=117-	=117-	=117-	=117-	=117-	=117-	=117-	=117-	=117-	=117-	=117-	=117-	=117-
.	.	.	.	.	.	.	.	1e	-a-	2a\	-a-	1b	-a-	1ee	-a-
.	.	.	.	.	.	.	.	.	.	2g#X\	.	.	.	.	.
=118-	=118-	=118-	=118-	=118-	=118-	=118-	=118-	=118-	=118-	=118-	=118-	=118-	=118-	=118-	=118-
.	.	.	.	.	.	.	.	1A	-rum	1a	-rum	1a	-rum	1cc#X	-rum
*	*	*	*	*	*	*custos:ee	*	*	*	*	*	*	*	*	*
!LO:LB:g=original	!	!	!	!	!	!LO:LB:g=original	!	!	!	!	!	!	!	!	!
=119-	=119-	=119-	=119-	=119-	=119-	=119-	=119-	=119-	=119-	=119-	=119-	=119-	=119-	=119-	=119-
*M3/2	*	*M3/2	*	*M3/2	*	*M3/2	*	*M3/2	*	*M3/2	*	*M3/2	*	*M3/2	*
0.r	.	0.r	.	0.r	.	0.r	.	1A	Lu-	1a	Lu-	1cc#X	Lu-	1ee	Lu-
.	.	.	.	.	.	.	.	1A/	-nam	1a\	-nam	1cc#\	-nam	1ee\	-nam
=120-	=120-	=120-	=120-	=120-	=120-	=120-	=120-	=120-	=120-	=120-	=120-	=120-	=120-	=120-	=120-
.	.	.	.	.	.	.	.	1d	et	1f	et	1dd	et	1ff	et
=121-	=121-	=121-	=121-	=121-	=121-	=121-	=121-	=121-	=121-	=121-	=121-	=121-	=121-	=121-	=121-
1a	Lu-	1a	Lu-	1cc#X	Lu-	1ee	Lu-	1A	stel-	1a	stel-	1cc#X	stel-	1ee	stel-
1a\	-nam	1a\	-nam	1cc#\	-nam	1ee\	-nam	1A/	-las	1a\	-las	1cc#\	-las	1ee\	-las
=122-	=122-	=122-	=122-	=122-	=122-	=122-	=122-	=122-	=122-	=122-	=122-	=122-	=122-	=122-	=122-
1d	et	1f	et	1dd	et	1ff	et	1r	.	1r	.	1r	.	1r	.
.	.	.	.	.	.	.	.	.	.	.	.	.	.	.	.
=123-	=123-	=123-	=123-	=123-	=123-	=123-	=123-	=123-	=123-	=123-	=123-	=123-	=123-	=123-	=123-
*	*	*	*	*	*	*	*	*	*ij	*	*ij	*	*ij	*	*ij
1a	stel-	1a	stel-	1cc#X	stel-	1ee	stel-	1A	Lu-	1a	Lu-	1cc#X	Lu-	1ee	Lu-
1a\	-las	1a\	-las	1cc#\	-las	1ee\	-las	1A/	-nam	1a\	-nam	1cc#\	-nam	1ee\	-nam
=124-	=124-	=124-	=124-	=124-	=124-	=124-	=124-	=124-	=124-	=124-	=124-	=124-	=124-	=124-	=124-
.	.	.	.	.	.	.	.	.	.	.	.	.	.	.	.
1r	.	1r	.	1r	.	1r	.	1d	et	1f	et	1dd	et	1ff	et
=125-	=125-	=125-	=125-	=125-	=125-	=125-	=125-	=125-	=125-	=125-	=125-	=125-	=125-	=125-	=125-
*	*ij	*	*	*	*ij	*	*	*	*	*	*	*	*	*	*
1a	Lu-	1a	Lu-	1cc#X	Lu-	1ee	lu-	1A	ste-	1a	stel-	1cc#X	stel-	1ee	stel-
.	.	.	.	.	.	.	.	.	.	.	.	.	.	.	.
1a	-nam	1a\	-nam	1cc#\	-nam	1ee\	-nam	1A/	-las	1a\	-las	1cc#\	-las	1ee\	-las
*	*	*	*	*	*	*	*	*	*Xij	*	*Xij	*	*Xij	*	*Xij
=126-	=126-	=126-	=126-	=126-	=126-	=126-	=126-	=126-	=126-	=126-	=126-	=126-	=126-	=126-	=126-
1d	et	1f	et	1dd	et	1ff	et	1r	.	1r	.	1r	.	1r	.
.	.	.	.	.	.	.	.	.	.	.	.	.	.	.	.
=127-	=127-	=127-	=127-	=127-	=127-	=127-	=127-	=127-	=127-	=127-	=127-	=127-	=127-	=127-	=127-
1a	stel-	1a	stel-	1cc#X	stel-	1ee	stel-	0.r	.	0.r	.	0.r	.	0.r	.
.	.	.	.	.	.	.	.	.	.	.	.	.	.	.	.
1a	-las	1a\	-las	1cc#\	-las	1ee\	-las	.	.	.	.	.	.	.	.
*	*	*	*	*	*Xij	*	*	*	*	*	*	*	*	*	*
=128-	=128-	=128-	=128-	=128-	=128-	=128-	=128-	=128-	=128-	=128-	=128-	=128-	=128-	=128-	=128-
1r	.	1r	.	1r	.	1r	.	.	.	.	.	.	.	.	.
*	*Xij	*	*	*	*	*	*	*	*	*	*	*	*	*	*
*	*	*	*	*	*	*	*	*	*	*	*	*	*	*custos:cc#	*
!	!	!	!	!	!	!	!	!	!	!	!	!	!	!LO:LB:g=original	!
=129-	=129-	=129-	=129-	=129-	=129-	=129-	=129-	=129-	=129-	=129-	=129-	=129-	=129-	=129-	=129-
*M2/2	*	*M2/2	*	*M2/2	*	*M2/2	*	*M2/2	*	*M2/2	*	*M2/2	*	*M2/2	*
*met(C|)	*	*met(C|)	*	*met(C|)	*	*met(C|)	*	*met(C|)	*	*met(C|)	*	*met(C|)	*	*met(C|)	*
0r	.	0r	.	0r	.	1ee	quae	1A	-quae	1e	quae	1a	quae	1cc#X	quae
=130-	=130-	=130-	=130-	=130-	=130-	=130-	=130-	=130-	=130-	=130-	=130-	=130-	=130-	=130-	=130-
.	.	.	.	.	.	2dd\	tu	2B-X/	tu	2d/	tu	2f/	tu	2dd\	tu
.	.	.	.	.	.	2dd\	fun-	2G/	fun-	2gny\	fun-	2b-X\	fun-	2ee\	fun-
=131-	=131-	=131-	=131-	=131-	=131-	=131-	=131-	=131-	=131-	=131-	=131-	=131-	=131-	=131-	=131-
1r	.	1r	.	1r	.	2cc#X\	-da-	0A	-da-	2g\	-da-	0a	-da-	2cc#X\	-da-
.	.	.	.	.	.	1dd\	.	.	.	2f\	.	.	.	1dd\	.
*	*	*	*	*	*	*	*	*	*	*custos:e	*	*	*	*	*
!	!	!	!	!	!	!	!	!	!	!LO:LB:g=original	!	!	!	!	!
=132-	=132-	=132-	=132-	=132-	=132-	=132-	=132-	=132-	=132-	=132-	=132-	=132-	=132-	=132-	=132-
1g	quae	1a	quae	1a	quae	.	.	.	.	1e	.	.	.	.	.
.	.	.	.	.	.	2cc#X\	.	.	.	.	.	.	.	2cc#X\	.
=133-	=133-	=133-	=133-	=133-	=133-	=133-	=133-	=133-	=133-	=133-	=133-	=133-	=133-	=133-	=133-
2d\	tu	2a\	tu	2a\	tu	2dd\,>	-ſti	1d	-ſti	1f	-sti	1a	-sti	1dd	-ſti
*	*	*	*	*	*	*	*ij	*	*	*	*	*	*	*	*
2d\	fun-	2f\	fun-	2a\	fun-	2dd\	quae	.	.	.	.	.	.	.	.
=134-	=134-	=134-	=134-	=134-	=134-	=134-	=134-	=134-	=134-	=134-	=134-	=134-	=134-	=134-	=134-
0A	-da-	2e/	-da-	0a	-da-	2dd\	tu	0r	.	0r	.	0r	.	0r	.
.	.	2f\	.	.	.	2dd\	fun-	.	.	.	.	.	.	.	.
=135-	=135-	=135-	=135-	=135-	=135-	=135-	=135-	=135-	=135-	=135-	=135-	=135-	=135-	=135-	=135-
.	.	1e	.	.	.	0dd	-da-	.	.	.	.	.	.	.	.
*	*	*custos:f#	*	*	*	*	*	*	*	*	*	*	*	*	*
!	!	!LO:PB:g=original	!	!	!	!	!	!	!	!	!	!	!	!	!
=136-	=136-	=136-	=136-	=136-	=136-	=136-	=136-	=136-	=136-	=136-	=136-	=136-	=136-	=136-	=136-
2d\	-ſti	2f#X\	-sti	2a,>\	-ſti	.	.	2r	.	2r	.	2r	.	2r	.
*	*	*	*	*	*	*	*	*	*	*	*	*	*	*	*ij
2d\	quae	2f#\	quae	2dd\	quae	.	.	2d\	quae	2a\	qua	2a\	quae	2dd\	qua
*	*	*	*	*	*	*	*	*custos:G	*	*	*	*	*	*	*
!	!	!	!	!	!	!	!	!LO:LB:g=original	!	!	!	!	!	!	!
=137-	=137-	=137-	=137-	=137-	=137-	=137-	=137-	=137-	=137-	=137-	=137-	=137-	=137-	=137-	=137-
2g\	tu	2d/	tu	2b-X\	tu	1dd	-ſti	2G/	tu	2g\	tu	2b-X\	tu	2dd\	tu
2d\	fun-	2d/	fun-	2dd\	fun-	.	.	2F#X/	fun-	2a\	fun-	2a\	fun-	2dd\	fun-
*	*	*	*	*	*	*	*Xij	*	*	*	*	*	*	*	*
*	*	*	*	*custos:g	*	*	*	*	*	*	*	*	*	*	*
!	!	!	!	!LO:PB:g=original	!	!LO:PB:g=original	!	!	!	!	!	!	!	!	!
=138-	=138-	=138-	=138-	=138-	=138-	=138-	=138-	=138-	=138-	=138-	=138-	=138-	=138-	=138-	=138-
*lig	*	*	*	*	*	*	*	*	*	*	*	*	*	*	*
1d	-da-	1.d	-da-	4g/	-da-	0r	.	0G	-da-	0g	-da-	4b-X\	-da-	4dd\	-da-
.	.	.	.	4a\	.	.	.	.	.	.	.	4ccny\	.	4ccny\	.
.	.	.	.	4b-X\	.	.	.	.	.	.	.	4dd\	.	4b-X/	.
.	.	.	.	4a\	.	.	.	.	.	.	.	4cc\	.	4cc\	.
=139-	=139-	=139-	=139-	=139-	=139-	=139-	=139-	=139-	=139-	=139-	=139-	=139-	=139-	=139-	=139-
1g	.	.	.	1g	.	.	.	.	.	.	.	1b-X	.	1dd	.
.	.	2e/	.	.	.	.	.	.	.	.	.	.	.	.	.
*Xlig	*	*	*	*	*	*	*	*	*	*	*	*	*	*	*
*	*	*	*	*	*	*	*	*	*	*	*	*custos:a	*	*	*
!LO:PB:g=original	!	!	!	!	!	!	!	!	!	!	!	!LO:LB:g=original	!	!	!
=140-	=140-	=140-	=140-	=140-	=140-	=140-	=140-	=140-	=140-	=140-	=140-	=140-	=140-	=140-	=140-
1d	-sti	1f#X	-sti	1a,>	-sti	1r	.	1d	-ſti	1f#X	-sti	1a	-sti	1dd	-ſti
*	*	*	*	*	*	*	*	*	*	*	*	*	*	*	*Xij
=141-	=141-	=141-	=141-	=141-	=141-	=141-	=141-	=141-	=141-	=141-	=141-	=141-	=141-	=141-	=141-
!	!	!LO:N:acc=♭	!	!	!	!	!	!	!	!	!	!	!	!	!
2.d\	Do-	2.fnX\	Do-	2.a\	Do-	2.dd\	Do-	1r	.	1r	.	1r	.	1r	.
4d\	-mi-	4f\	-mi-	4a\	-mi-	4dd\	-mi-	.	.	.	.	.	.	.	.
=142-	=142-	=142-	=142-	=142-	=142-	=142-	=142-	=142-	=142-	=142-	=142-	=142-	=142-	=142-	=142-
2d\	-ne	2f\	-ne	2a\	-ne	2dd\	-ne	2r	.	2r	.	2r	.	2r	.
2.B-X/	Do-	2.d/	Do-	2.b-X\	Do-	2.dd\	Do-	2.B-X/	Do-	2.fny\	Do-	4.b-X\	Do-	2.ff\	Do-
.	.	.	.	.	.	.	.	.	.	.	.	8b-\	-mi-	.	.
=143-	=143-	=143-	=143-	=143-	=143-	=143-	=143-	=143-	=143-	=143-	=143-	=143-	=143-	=143-	=143-
.	.	.	.	.	.	.	.	.	.	.	.	2bny\	-ne	.	.
4B-X/	-mi-	4d/	-mi-	4b-\	-mi-	4dd\	-mi-	4B-/	-mi-	4f\	-mi-	.	.	4ff\	-mi-
2F/	-nus	2f\	-nus	2ccny\,>	-nus	2ccny\	-nus	2f,>\	-ne	2a,>\	-ne	4.a\	Do-	2ff\	-ne
.	.	.	.	.	.	.	.	.	.	.	.	8b\	-mi-	.	.
=144-	=144-	=144-	=144-	=144-	=144-	=144-	=144-	=144-	=144-	=144-	=144-	=144-	=144-	=144-	=144-
0c	no-	4.g\	Do-	4cc\	no-	0cc	no-	2.c/	Do-	4.g\	Do-	1cc,>	-nus	4.ee\	Do-
.	.	.	.	4b-X\	.	.	.	.	.	.	.	.	.	.	.
.	.	8g\	-mi-	.	.	.	.	.	.	8g\	-mi-	.	.	8ee\	-mi-
.	.	2f\	nus	4a\	.	.	.	.	.	2a\	-nus	.	.	2ff\	-nus
.	.	.	.	4b-X\	.	.	.	4c/	-mi-	.	.	.	.	.	.
=145-	=145-	=145-	=145-	=145-	=145-	=145-	=145-	=145-	=145-	=145-	=145-	=145-	=145-	=145-	=145-
.	.	2g\	no-	1g	.	.	.	2c/	-nus	1g	no	1cc	no-	2ff\	no-
.	.	1c/	.	.	.	.	.	2c/	no-	.	.	.	.	2ee\	.
*	*	*	*	*	*	*	*	*	*	*	*	*	*	*custos:ff	*
!	!	!	!	!	!	!	!	!	!	!	!	!	!	!LO:LB:g=original	!
=146-	=146-	=146-	=146-	=146-	=146-	=146-	=146-	=146-	=146-	=146-	=146-	=146-	=146-	=146-	=146-
1F	-ſter	.	.	1f	-ſter	1cc	-ster	1f,>	-ſter	1a,	ſter	1a	-ster	1ff	ſter
.	.	2f\	-ſter	.	.	.	.	.	.	.	.	.	.	.	.
=147-	=147-	=147-	=147-	=147-	=147-	=147-	=147-	=147-	=147-	=147-	=147-	=147-	=147-	=147-	=147-
00r	.	00r	.	00r	.	00r	.	2f\	quam	2a\	q(ua)m	1a,>	q(ua)m	1cc	-quam
.	.	.	.	.	.	.	.	4f\	ad-	4a\	ad-	.	.	.	.
.	.	.	.	.	.	.	.	4e\	-mi-	4g\	-mi-	.	.	.	.
=148-	=148-	=148-	=148-	=148-	=148-	=148-	=148-	=148-	=148-	=148-	=148-	=148-	=148-	=148-	=148-
.	.	.	.	.	.	.	.	2.d\	-ra-	2.f\	-ra-	2.dd\	ad-	2.ff\	ad
.	.	.	.	.	.	.	.	4d\	-bi-	4f\	-bi-	4cc\	-mi-	4ee\	mi-
=149-	=149-	=149-	=149-	=149-	=149-	=149-	=149-	=149-	=149-	=149-	=149-	=149-	=149-	=149-	=149-
.	.	.	.	.	.	.	.	2.f\	-le	1.g	-le	2b\	-ra-	2dd\	-ra-
.	.	.	.	.	.	.	.	.	.	.	.	2b\	-bi-	2dd\	-bi-
.	.	.	.	.	.	.	.	4f\	eſt	.	.	.	.	.	.
=150-	=150-	=150-	=150-	=150-	=150-	=150-	=150-	=150-	=150-	=150-	=150-	=150-	=150-	=150-	=150-
.	.	.	.	.	.	.	.	2e\	-no-	.	.	2cc\	-le	2ee\	-le
.	.	.	.	.	.	.	.	2c/	-men	2g\	eſt	2cc\	est	2ee\	est
*	*	*	*	*	*	*	*	*	*	*custos:a	*	*	*	*	*
!	!	!	!	!	!	!	!	!	!	!LO:LB:g=original	!	!	!	!	!
=151-	=151-	=151-	=151-	=151-	=151-	=151-	=151-	=151-	=151-	=151-	=151-	=151-	=151-	=151-	=151-
0r	.	0r	.	0r	.	0r	.	2.f\	tu-	2.a\	no-	2.a\	no-	1cc	no-
.	.	.	.	.	.	.	.	4e\	.	4g\	.	8b\L	.	.	.
.	.	.	.	.	.	.	.	.	.	.	.	8cc\J	.	.	.
*	*	*	*	*	*	*	*	*custos:d	*	*	*	*	*	*	*
!	!	!	!	!	!	!	!	!LO:LB:g=original	!	!	!	!	!	!	!
=152-	=152-	=152-	=152-	=152-	=152-	=152-	=152-	=152-	=152-	=152-	=152-	=152-	=152-	=152-	=152-
.	.	.	.	.	.	.	.	4d\	.	2f\	.	2dd\	.	1ff,>	-men
.	.	.	.	.	.	.	.	4e\	.	.	.	.	.	.	.
.	.	.	.	.	.	.	.	4f\	.	2a,\	-men	2cc\	-men	.	.
.	.	.	.	.	.	.	.	4d\	.	.	.	.	.	.	.
=153-	=153-	=153-	=153-	=153-	=153-	=153-	=153-	=153-	=153-	=153-	=153-	=153-	=153-	=153-	=153-
1r	.	1r	.	1r	.	1r	.	1e	.	(>2a\	tu-	1b	tu-	1ee	tu-
.	.	.	.	.	.	.	.	.	.	2g#X\)	.	.	.	.	.
*	*	*custos:e	*	*	*	*	*	*	*	*	*	*	*	*	*
!	!	!LO:LB:g=original	!	!	!	!	!	!	!	!	!	!	!	!	!
=154-	=154-	=154-	=154-	=154-	=154-	=154-	=154-	=154-	=154-	=154-	=154-	=154-	=154-	=154-	=154-
2A/	q(ua)m	2e/	quam	2a\	quam	2cc#X\	quam	2A/	-um	1a,>	-um	1cc#X	-um	1ee,>	-um
4A/	ad-	4e/	ad-	4a\	ad-	4cc#\	ad-	2r	.	.	.	.	.	.	.
4A/	-mi-	4e/	-mi-	4a\	-mi-	4cc#\	-mi-	.	.	.	.	.	.	.	.
=155-	=155-	=155-	=155-	=155-	=155-	=155-	=155-	=155-	=155-	=155-	=155-	=155-	=155-	=155-	=155-
2.d\	-ra-	2.f#X\	-ra-	2.a\	-ra-	2.dd\	-ra-	2d\	quam	2a\	quam	2a\	quam	2dd\	qua(m)
.	.	.	.	.	.	.	.	4d\	ad-	4a\	ad-	4a\	ad-	4dd\	ad-
4d\	-bi-	4f#\	-bi-	4dd\	-bi-	4dd\	-bi-	4d\	-mi-	4a\	-mi-	4a\	-mi-	4dd\	-mi-
*	*	*	*	*custos:dd	*	*	*	*	*	*	*	*	*	*	*
!	!	!	!	!LO:LB:g=original	!	!	!	!	!	!	!	!	!	!	!
=156-	=156-	=156-	=156-	=156-	=156-	=156-	=156-	=156-	=156-	=156-	=156-	=156-	=156-	=156-	=156-
1g,>	-le	1d,>	-le	1dd,>	-le	1dd	-le	2.G/	-ra-	2.gny\	-ra-	2.b\	-ra-	2.dd\	-ra-
.	.	.	.	.	.	.	.	4G/	-bi-	4g\	-bi-	4b\	-bi-	4dd\	-bi-
*	*	*	*	*	*	*	*	*	*	*	*	*custos:b	*	*	*
!	!	!	!	!	!	!	!	!	!	!	!	!LO:LB:g=original	!	!	!
=157-	=157-	=157-	=157-	=157-	=157-	=157-	=157-	=157-	=157-	=157-	=157-	=157-	=157-	=157-	=157-
2g\	quam	2d/	quam	2dd\	quam	2dd\	quam	1G	-le	1g,>	-le	1b	-le	1dd	-le
4g\	ad-	4g\	ad-	4bny\	ad-	4dd\	ad-	.	.	.	.	.	.	.	.
4g\	-mi-	4g\	-mi-	4b\	-mi-	4dd\	-mi-	.	.	.	.	.	.	.	.
=158-	=158-	=158-	=158-	=158-	=158-	=158-	=158-	=158-	=158-	=158-	=158-	=158-	=158-	=158-	=158-
*	*	*	*	*	*	*	*	*	*ij	*	*	*	*ij	*	*
2.c/	-ra-	2.g\	-ra-	2.g/	-ra-	2.ccny\	-ra-	2c/	quam	2g,>\	q(ua)m	2ccny\	quam	2ee\	quam
.	.	.	.	.	.	.	.	4c/	ad-	4g\	ad-	4cc\	ad-	4ee\	ad-
4c/	-bi-	4g\	-bi-	4cc\	-bi-	4cc\	-bi-	4c/	-mi-	4g\	-mi-	4cc\	-mi-	4ee\	-mi-
=159-	=159-	=159-	=159-	=159-	=159-	=159-	=159-	=159-	=159-	=159-	=159-	=159-	=159-	=159-	=159-
2f\	-le	2fny\	-le	2cc\	-le	2cc\	-le	2.Fny/	-ra-	2.a\	-ra-	2.a\	-ra-	2.ff\	-ra-
2f\	eſt	2f\	eſt	2a\	eſt	2cc\	eſt	.	.	.	.	.	.	.	.
.	.	.	.	.	.	.	.	4F/	-bi-	4g\	-bi-	4a\	-bi-	4ff\	-bi-
*custos:d	*	*	*	*	*	*	*	*	*	*	*	*	*	*	*
!LO:LB:g=original	!	!	!	!	!	!	!	!	!	!	!	!	!	!	!
=160-	=160-	=160-	=160-	=160-	=160-	=160-	=160-	=160-	=160-	=160-	=160-	=160-	=160-	=160-	=160-
1r	.	1r	.	1r	.	1r	.	2B-X,>/	-le	2f\	-le	2b-X,>\	-le	2dd\	-le
*	*	*	*	*	*	*	*	*	*Xij	*	*	*	*Xij	*	*
.	.	.	.	.	.	.	.	2B-/	eſt	2f\	eſt	2b-\	eſt	2dd\	eſt
*	*	*	*	*	*	*custos:dd	*	*	*	*	*	*	*	*	*
!	!	!	!	!	!	!LO:LB:g=original	!	!	!	!	!	!	!	!	!
=161-	=161-	=161-	=161-	=161-	=161-	=161-	=161-	=161-	=161-	=161-	=161-	=161-	=161-	=161-	=161-
1.d	no-	1.g	no-	1.b-X	no-	1.dd	no-	1G	no-	1g	no-	2.b-X\	no-	1.dd	no-
.	.	.	.	.	.	.	.	.	.	.	.	4cc\	.	.	.
=162-	=162-	=162-	=162-	=162-	=162-	=162-	=162-	=162-	=162-	=162-	=162-	=162-	=162-	=162-	=162-
.	.	.	.	.	.	.	.	2r	.	1d,>	-men	2dd\	.	.	.
2d\	-men	2g\	-men	2b-,>\	-men	2ee\	-men	2G/	-men	.	.	2b-X,>\	-men	2gg\	-men
*	*	*	*	*	*	*	*	*	*	*	*	*	*	*custos:gg	*
!	!	!	!	!	!	!	!	!	!	!	!	!	!	!LO:LB:g=original	!
=163-	=163-	=163-	=163-	=163-	=163-	=163-	=163-	=163-	=163-	=163-	=163-	=163-	=163-	=163-	=163-
*lig	*	*	*	*	*	*	*	*	*	*	*	*	*	*	*
1A	tu-	2f\	tu-	2cc#X\	tu-	2ee\	tu-	0A	tu-	0a	tu-	0a	tu-	2gg\	tu-
.	.	4e/	.	2dd\	.	1dd\	.	.	.	.	.	.	.	2ff\	.
.	.	4d/	.	.	.	.	.	.	.	.	.	.	.	.	.
=164-	=164-	=164-	=164-	=164-	=164-	=164-	=164-	=164-	=164-	=164-	=164-	=164-	=164-	=164-	=164-
1a	.	1e	.	0a	-um	.	.	.	.	.	.	.	.	1ee	.
.	.	.	.	.	.	2cc#X\	.	.	.	.	.	.	.	.	.
*Xlig	*	*	*	*	*	*	*	*	*	*	*	*	*	*	*
=165-	=165-	=165-	=165-	=165-	=165-	=165-	=165-	=165-	=165-	=165-	=165-	=165-	=165-	=165-	=165-
2d\	-um	2f\	-um	.	.	2dd,>\	-um	1d	-um	1d,	-um	1a	-um	1dd	-um
2d\	in	2f\	in	.	.	2dd\	in	.	.	.	.	.	.	.	.
*	*	*	*	*	*	*	*	*	*	*custos:f	*	*	*	*	*
!	!	!	!	!	!	!	!	!	!	!LO:LB:g=original	!	!	!	!	!
=166-	=166-	=166-	=166-	=166-	=166-	=166-	=166-	=166-	=166-	=166-	=166-	=166-	=166-	=166-	=166-
2c#X/	U-	2e/	u-	2r	.	2.a/	U-	00r	.	00r	.	00r	.	00r	.
2d\	-ni-	2f\	-ni-	2a\	in	.	.	.	.	.	.	.	.	.	.
.	.	.	.	.	.	4a/	-ni-	.	.	.	.	.	.	.	.
*	*	*custos:d	*	*	*	*	*	*	*	*	*	*	*	*	*
!	!	!LO:LB:g=original	!	!	!	!	!	!	!	!	!	!	!	!	!
=167-	=167-	=167-	=167-	=167-	=167-	=167-	=167-	=167-	=167-	=167-	=167-	=167-	=167-	=167-	=167-
2Bny/	-ver-	2d/	-ver-	2bny\	U-	2dd\	-ver-	.	.	.	.	.	.	.	.
2cny/	-sa	2c/	-sa	2g/	-ni-	2ee\	-sa	.	.	.	.	.	.	.	.
=168-	=168-	=168-	=168-	=168-	=168-	=168-	=168-	=168-	=168-	=168-	=168-	=168-	=168-	=168-	=168-
2A/	ter-	2f\	ter-	2a\	-ver-	2cc#X\	ter-	.	.	.	.	.	.	.	.
2B-X/	.	2d/	.	2g/	-ſa	1dd\	.	.	.	.	.	.	.	.	.
=169-	=169-	=169-	=169-	=169-	=169-	=169-	=169-	=169-	=169-	=169-	=169-	=169-	=169-	=169-	=169-
2G/	.	1e	.	2b-X\	ter-	.	.	.	.	.	.	.	.	.	.
2A/	.	.	.	2a\	.	2cc#X\	-ra	.	.	.	.	.	.	.	.
=170-	=170-	=170-	=170-	=170-	=170-	=170-	=170-	=170-	=170-	=170-	=170-	=170-	=170-	=170-	=170-
1d	-ra	1f	-ra	1a	-ra	1dd	in	2r	.	2r	.	2r	.	2r	.
.	.	.	.	.	.	.	.	2d\	in	2f\	in	2a\	in	2dd\	in
*	*	*	*	*	*	*	*	*custos:c	*	*	*	*	*	*	*
!	!	!	!	!	!	!	!	!LO:LB:g=original	!	!	!	!	!	!	!
=171-	=171-	=171-	=171-	=171-	=171-	=171-	=171-	=171-	=171-	=171-	=171-	=171-	=171-	=171-	=171-
00r	.	00r	.	00r	.	00r	.	2c/	U-	2g\	U-	2cc\	U-	2ee\	U-
.	.	.	.	.	.	.	.	2A/	-ni-	2a\	-ni-	2cc\	-ni-	2ff\	-ni-
=172-	=172-	=172-	=172-	=172-	=172-	=172-	=172-	=172-	=172-	=172-	=172-	=172-	=172-	=172-	=172-
.	.	.	.	.	.	.	.	2Bny/	-ver-	4g\	-ver-	2dd\	-ver-	2dd\	-ver-
.	.	.	.	.	.	.	.	.	.	4e/	-ſa	.	.	.	.
.	.	.	.	.	.	.	.	2c/	-ſa	1a\	ter-	2cc\	-sa	2ee,>\	-sa
=173-	=173-	=173-	=173-	=173-	=173-	=173-	=173-	=173-	=173-	=173-	=173-	=173-	=173-	=173-	=173-
.	.	.	.	.	.	.	.	0d	ter-	.	.	2cc\	ter-	2ff#X\	ter-
.	.	.	.	.	.	.	.	.	.	2g\	.	2bny\	.	1gg\	.
=174-	=174-	=174-	=174-	=174-	=174-	=174-	=174-	=174-	=174-	=174-	=174-	=174-	=174-	=174-	=174-
.	.	.	.	.	.	.	.	.	.	1a	.	1a	.	.	.
.	.	.	.	.	.	.	.	.	.	.	.	.	.	2ff#X\	.
=175-	=175-	=175-	=175-	=175-	=175-	=175-	=175-	=175-	=175-	=175-	=175-	=175-	=175-	=175-	=175-
2r	.	2r	.	2r	.	2r	.	1G	-ra	1g	-ra	1b	-ra	1gg	-ra
2G/	in	2g\	in	2bny\	in	2dd\	U-	.	.	.	.	.	.	.	.
*	*	*	*	*custos:cc	*	*	*	*	*	*	*	*	*	*	*
!	!	!	!	!LO:LB:g=original	!	!	!	!	!	!	!	!	!	!	!
=176-	=176-	=176-	=176-	=176-	=176-	=176-	=176-	=176-	=176-	=176-	=176-	=176-	=176-	=176-	=176-
2.c/	U-	2.g\	u-	2.ccny\	U-	2.ee\	-ni-	1r	.	1r	.	1r	.	1r	.
4c/	-ni-	4g\	-ni-	4cc\	-ni-	4ee\	-ver-	.	.	.	.	.	.	.	.
=177-	=177-	=177-	=177-	=177-	=177-	=177-	=177-	=177-	=177-	=177-	=177-	=177-	=177-	=177-	=177-
2d\	-ver-	2f\	-ver-	2a\	-ver-	2dd\	-ſa	2r	.	2r	.	2r	.	2r	.
2d\	-ſa	2a\	-sa	2a,>\	-sa	2dd\	ter	2d\	in	2f\	in	2a\	in	2ffny\	in
*	*	*	*	*	*	*	*	*	*	*	*	*custos:a	*	*	*
!	!	!	!	!	!	!	!	!	!	!	!	!LO:LB:g=original	!	!	!
=178-	=178-	=178-	=178-	=178-	=178-	=178-	=178-	=178-	=178-	=178-	=178-	=178-	=178-	=178-	=178-
0.A	ter-	4a\	ter-	4cc#X\	ter-	2cc#X\	.	2.a\	u-	2.a\	U-	4.a\	U-	4.ee\	U-
.	.	4g\	.	4b\	.	.	.	.	.	.	.	.	.	.	.
.	.	.	.	.	.	.	.	.	.	.	.	8a\	-ni-	8ee\	-ni-
.	.	4f\	.	4a\	.	1dd\	.	.	.	.	.	4a\	-ver-	2ff\	-ver-
.	.	4g\	.	4b\	.	.	.	4a\	-ni-	4a\	-ni-	4a\	-sa	.	.
=179-	=179-	=179-	=179-	=179-	=179-	=179-	=179-	=179-	=179-	=179-	=179-	=179-	=179-	=179-	=179-
.	.	1a	.	4cc#X\	.	.	.	2a\	-ver-	2a\	-ver-	4a\	ter-	1ee	-sa
.	.	.	.	4a\	.	.	.	.	.	.	.	4b\	.	.	.
*	*	*	*	*	*	*custos:cc#	*	*	*	*	*	*	*	*	*
!	!	!	!	!	!	!LO:LB:g=original	!	!	!	!	!	!	!	!	!
.	.	.	.	2dd\	.	4cc#X\	.	2a\	-sa	2a,>\	-ſa	4cc\	.	.	.
.	.	.	.	.	.	4b/	.	.	.	.	.	4dd\	.	.	.
=180-	=180-	=180-	=180-	=180-	=180-	=180-	=180-	=180-	=180-	=180-	=180-	=180-	=180-	=180-	=180-
.	.	1e	.	1a	.	1cc#X	.	1a	ter-	1g	ter-	2ee\	.	1ee	ter-
.	.	.	.	.	.	.	.	.	.	.	.	2a\	.	.	.
=181-	=181-	=181-	=181-	=181-	=181-	=181-	=181-	=181-	=181-	=181-	=181-	=181-	=181-	=181-	=181-
0d	-ra.	0f	-ra.	0a	-ra.	0dd	-ra.	0d	-ra.	0f	-ra.	0a	-ra.	0dd	-ra
=-	=-	=-	=-	=-	=-	=-	=-	=-	=-	=-	=-	=-	=-	=-	=-
*-	*-	*-	*-	*-	*-	*-	*-	*-	*-	*-	*-	*-	*-	*-	*-
!!!system-decoration: [(g1)][(g2)]
!!!RDF**kern: > = above
!!!RDF**kern: < = below
!!!ENC: Berenika Jozajtis
!!!END: 2021-11-03
!!!EED: Jędrzej Mróz
!!!ESR: 2021-11-09
!!!YEC: Copyright 2022 Narodowy Instytut Fryderyka Chopina (https://polishscores.org)
!!!YEM: License CC-BY-4.0 (https://creativecommons.org/licenses/by/4.0)
